; G-Code generated by Simplify3D(R) Version 4.0.0
; Oct 11, 2019 at 6:03:42 PM
; Settings Summary
;   processName,Process1
;   applyToModels,circel_test
;   profileName,Z6
;   profileVersion,2019-10-11 12:28:38
;   baseProfile,Default (modified)
;   printMaterial,PLA
;   printQuality,Medium
;   printExtruders,
;   extruderName,Primary Extruder
;   extruderToolheadNumber,0
;   extruderDiameter,0.4
;   extruderAutoWidth,1
;   extruderWidth,0.48
;   extrusionMultiplier,1
;   extruderUseRetract,1
;   extruderRetractionDistance,5
;   extruderExtraRestartDistance,0
;   extruderRetractionZLift,1
;   extruderRetractionSpeed,1800
;   extruderUseCoasting,1
;   extruderCoastingDistance,0.2
;   extruderUseWipe,1
;   extruderWipeDistance,5
;   primaryExtruder,0
;   layerHeight,0.2
;   topSolidLayers,5
;   bottomSolidLayers,4
;   perimeterOutlines,3
;   printPerimetersInsideOut,1
;   startPointOption,3
;   startPointOriginX,110
;   startPointOriginY,110
;   sequentialIslands,0
;   spiralVaseMode,0
;   firstLayerHeightPercentage,95
;   firstLayerWidthPercentage,105
;   firstLayerUnderspeed,0.4
;   useRaft,0
;   raftExtruder,0
;   raftTopLayers,3
;   raftBaseLayers,2
;   raftOffset,3
;   raftSeparationDistance,0.14
;   raftTopInfill,100
;   aboveRaftSpeedMultiplier,0.3
;   useSkirt,0
;   skirtExtruder,999
;   skirtLayers,2
;   skirtOutlines,2
;   skirtOffset,4
;   usePrimePillar,0
;   primePillarExtruder,999
;   primePillarWidth,12
;   primePillarLocation,7
;   primePillarSpeedMultiplier,1
;   useOozeShield,0
;   oozeShieldExtruder,999
;   oozeShieldOffset,2
;   oozeShieldOutlines,1
;   oozeShieldSidewallShape,1
;   oozeShieldSidewallAngle,30
;   oozeShieldSpeedMultiplier,1
;   infillExtruder,0
;   internalInfillPattern,Rectilinear
;   externalInfillPattern,Rectilinear
;   infillPercentage,30
;   outlineOverlapPercentage,15
;   infillExtrusionWidthPercentage,100
;   minInfillLength,5
;   infillLayerInterval,1
;   internalInfillAngles,45,-45
;   overlapInternalInfillAngles,0
;   externalInfillAngles,45,-45
;   generateSupport,1
;   supportExtruder,0
;   supportInfillPercentage,40
;   supportExtraInflation,0
;   supportBaseLayers,2
;   denseSupportExtruder,0
;   denseSupportLayers,2
;   denseSupportInfillPercentage,70
;   supportLayerInterval,1
;   supportHorizontalPartOffset,0.3
;   supportUpperSeparationLayers,1
;   supportLowerSeparationLayers,1
;   supportType,1
;   supportGridSpacing,4
;   maxOverhangAngle,45
;   supportAngles,45
;   temperatureName,Primary Extruder,bed
;   temperatureNumber,0,0
;   temperatureSetpointCount,1,1
;   temperatureSetpointLayers,1,1
;   temperatureSetpointTemperatures,205,60
;   temperatureStabilizeAtStartup,1,1
;   temperatureHeatedBed,0,1
;   temperatureRelayBetweenLayers,0,0
;   temperatureRelayBetweenLoops,0,0
;   fanLayers,1,2
;   fanSpeeds,0,100
;   blipFanToFullPower,0
;   adjustSpeedForCooling,1
;   minSpeedLayerTime,15
;   minCoolingSpeedSlowdown,25
;   increaseFanForCooling,0
;   minFanLayerTime,45
;   maxCoolingFanSpeed,100
;   increaseFanForBridging,0
;   bridgingFanSpeed,100
;   use5D,1
;   relativeEdistances,0
;   allowEaxisZeroing,1
;   independentExtruderAxes,0
;   includeM10123,0
;   stickySupport,1
;   applyToolheadOffsets,0
;   gcodeXoffset,0
;   gcodeYoffset,0
;   gcodeZoffset,0
;   overrideMachineDefinition,1
;   machineTypeOverride,0
;   strokeXoverride,150
;   strokeYoverride,150
;   strokeZoverride,150
;   originOffsetXoverride,0
;   originOffsetYoverride,0
;   originOffsetZoverride,0
;   homeXdirOverride,-1
;   homeYdirOverride,-1
;   homeZdirOverride,-1
;   flipXoverride,1
;   flipYoverride,-1
;   flipZoverride,1
;   toolheadOffsets,0,0|0,0|0,0|0,0|0,0|0,0
;   overrideFirmwareConfiguration,0
;   firmwareTypeOverride,RepRap (Marlin/Repetier/Sprinter)
;   GPXconfigOverride,r2
;   baudRateOverride,115200
;   overridePrinterModels,0
;   printerModelsOverride
;   startingGcode,G28 ; home all axes,,G1 Z5 F3000 ; lift,,G1 X5 Y10 F1500 ; move to prime,,G1 Z0.2 F3000 ; get ready to prime,,G92 E0 ; reset extrusion distance,,G1 Y80 E10 F600 ; prime nozzle,,G1 Y100 F5000 ; quick wipe
;   layerChangeGcode,
;   retractionGcode,
;   toolChangeGcode,
;   endingGcode,G28 X0 ; home x axis,,M106 S0 ; turn off cooling fan,,M104 S0 ; turn off extruder,,M140 S0 ; turn off bed,,M84 ; disable motors
;   exportFileFormat,gcode
;   celebration,0
;   celebrationSong,Random Song
;   postProcessing,
;   defaultSpeed,3600
;   outlineUnderspeed,0.5
;   solidInfillUnderspeed,0.8
;   supportUnderspeed,0.8
;   rapidXYspeed,4800
;   rapidZspeed,1000
;   minBridgingArea,50
;   bridgingExtraInflation,0
;   bridgingExtrusionMultiplier,1
;   bridgingSpeedMultiplier,1
;   useFixedBridgingAngle,0
;   fixedBridgingAngle,0
;   applyBridgingToPerimeters,0
;   filamentDiameters,1.75|1.75|1.75|1.75|1.75|1.75
;   filamentPricesPerKg,46|46|46|46|46|46
;   filamentDensities,1.25|1.25|1.25|1.25|1.25|1.25
;   useMinPrintHeight,0
;   minPrintHeight,0
;   useMaxPrintHeight,0
;   maxPrintHeight,1
;   useDiaphragm,0
;   diaphragmLayerInterval,20
;   robustSlicing,1
;   mergeAllIntoSolid,0
;   onlyRetractWhenCrossingOutline,1
;   retractBetweenLayers,1
;   useRetractionMinTravel,0
;   retractionMinTravel,3
;   retractWhileWiping,0
;   onlyWipeOutlines,1
;   avoidCrossingOutline,0
;   maxMovementDetourFactor,3
;   toolChangeRetractionDistance,12
;   toolChangeExtraRestartDistance,-0.5
;   toolChangeRetractionSpeed,600
;   externalThinWallType,0
;   internalThinWallType,2
;   thinWallAllowedOverlapPercentage,10
;   singleExtrusionMinLength,1
;   singleExtrusionMinPrintingWidthPercentage,50
;   singleExtrusionMaxPrintingWidthPercentage,200
;   singleExtrusionEndpointExtension,0.2
;   horizontalSizeCompensation,0
G90
M82
M106 S0
M140 S60
M190 S60
M104 S205 T0
M109 S205 T0
G28 ; home all axes
G1 Z5 F3000 ; lift
G1 X5 Y10 F1500 ; move to prime
G1 Z0.2 F3000 ; get ready to prime
G92 E0 ; reset extrusion distance
G1 Y80 E10 F600 ; prime nozzle
G1 Y100 F5000 ; quick wipe
G92 E0
G1 E-5.0000 F1800
G1 Z1.190 F1000
; process Process1
; layer 1, Z = 0.190
T0
; tool H0.200 W0.504
; inner perimeter
G1 X84.521 Y84.906 F4800
G1 Z0.190 F1000
G1 E0.0000 F540
G92 E0
G1 X83.980 Y85.399 E0.0307 F1080
G1 X83.408 Y85.867 E0.0617
G1 X83.128 Y86.078 E0.0764
G1 X82.520 Y86.499 E0.1074
G1 X81.897 Y86.883 E0.1380
G1 X81.247 Y87.237 E0.1690
G1 X80.934 Y87.392 E0.1837
G1 X80.258 Y87.694 E0.2147
G1 X79.575 Y87.956 E0.2454
G1 X78.879 Y88.181 E0.2760
G1 X78.173 Y88.368 E0.3066
G1 X77.449 Y88.520 E0.3376
G1 X77.104 Y88.578 E0.3523
G1 X76.370 Y88.671 E0.3833
G1 X75.640 Y88.725 E0.4140
G1 X74.908 Y88.739 E0.4446
G1 X74.182 Y88.715 E0.4751
G1 X73.453 Y88.652 E0.5058
G1 X72.719 Y88.549 E0.5368
G1 X72.375 Y88.487 E0.5515
G1 X71.646 Y88.324 E0.5828
G1 X71.305 Y88.234 E0.5976
G1 X70.598 Y88.015 E0.6285
G1 X69.914 Y87.764 E0.6591
G1 X69.240 Y87.474 E0.6898
G1 X68.585 Y87.150 E0.7205
G1 X67.948 Y86.792 E0.7511
G1 X67.331 Y86.400 E0.7817
G1 X66.729 Y85.971 E0.8127
G1 X66.451 Y85.756 E0.8274
G1 X65.884 Y85.280 E0.8585
G1 X65.350 Y84.781 E0.8891
G1 X64.844 Y84.253 E0.9197
G1 X64.365 Y83.700 E0.9504
G1 X63.917 Y83.120 E0.9811
G1 X63.496 Y82.513 E1.0121
G1 X63.308 Y82.217 E1.0268
G1 X62.938 Y81.579 E1.0577
G1 X62.604 Y80.926 E1.0884
G1 X62.307 Y80.259 E1.1190
G1 X62.045 Y79.576 E1.1497
G1 X61.821 Y78.883 E1.1802
G1 X61.630 Y78.166 E1.2113
G1 X61.554 Y77.825 E1.2259
G1 X61.420 Y77.088 E1.2573
G1 X61.371 Y76.742 E1.2719
G1 X61.297 Y76.006 E1.3030
G1 X61.263 Y75.275 E1.3336
G1 X61.268 Y74.543 E1.3643
G1 X61.312 Y73.813 E1.3949
G1 X61.394 Y73.086 E1.4256
G1 X61.515 Y72.369 E1.4561
G1 X61.674 Y71.653 E1.4868
G1 X61.874 Y70.940 E1.5179
G1 X61.982 Y70.607 E1.5325
G1 X62.237 Y69.912 E1.5636
G1 X62.525 Y69.242 E1.5941
G1 X62.850 Y68.584 E1.6249
G1 X63.209 Y67.947 E1.6555
G1 X63.605 Y67.324 E1.6865
G1 X63.811 Y67.026 E1.7016
G1 X64.020 Y66.741 E1.7164
G1 X64.486 Y66.154 E1.7479
G1 X64.714 Y65.890 E1.7625
G1 X65.218 Y65.351 E1.7934
G1 X65.751 Y64.840 E1.8243
G1 X66.012 Y64.608 E1.8390
G1 X66.586 Y64.138 E1.8700
G1 X67.175 Y63.706 E1.9007
G1 X67.790 Y63.304 E1.9315
G1 X68.421 Y62.938 E1.9620
G1 X69.078 Y62.602 E1.9930
G1 X69.398 Y62.454 E2.0077
G1 X70.081 Y62.171 E2.0387
G1 X70.770 Y61.928 E2.0693
G1 X71.472 Y61.721 E2.1000
G1 X72.184 Y61.552 E2.1307
G1 X72.904 Y61.421 E2.1613
G1 X73.630 Y61.329 E2.1920
G1 X74.360 Y61.275 E2.2227
G1 X75.092 Y61.261 E2.2534
G1 X75.818 Y61.285 E2.2838
G1 X76.556 Y61.349 E2.3148
G1 X76.902 Y61.393 E2.3295
G1 X77.632 Y61.515 E2.3605
G1 X78.355 Y61.676 E2.3915
G1 X78.695 Y61.766 E2.4063
G1 X79.402 Y61.985 E2.4373
G1 X80.088 Y62.237 E2.4679
G1 X80.760 Y62.526 E2.4986
G1 X81.416 Y62.850 E2.5292
G1 X82.052 Y63.208 E2.5598
G1 X82.669 Y63.600 E2.5905
G1 X83.266 Y64.025 E2.6212
G1 X83.839 Y64.481 E2.6518
G1 X84.385 Y64.965 E2.6824
G1 X84.907 Y65.481 E2.7132
G1 X85.404 Y66.026 E2.7441
G1 X85.629 Y66.294 E2.7588
G1 X86.083 Y66.880 E2.7898
G1 X86.499 Y67.479 E2.8204
G1 X86.883 Y68.103 E2.8511
G1 X87.232 Y68.743 E2.8817
G1 X87.551 Y69.410 E2.9126
G1 X87.691 Y69.734 E2.9274
G1 X87.955 Y70.423 E2.9583
G1 X88.180 Y71.119 E2.9890
G1 X88.368 Y71.827 E3.0197
G1 X88.518 Y72.544 E3.0504
G1 X88.629 Y73.264 E3.0809
G1 X88.702 Y73.991 E3.1115
G1 X88.737 Y74.730 E3.1426
G1 X88.740 Y75.079 E3.1572
G1 X88.715 Y75.819 E3.1882
G1 X88.652 Y76.548 E3.2189
G1 X88.549 Y77.281 E3.2499
G1 X88.487 Y77.625 E3.2645
G1 X88.325 Y78.348 E3.2956
G1 X88.128 Y79.054 E3.3263
G1 X87.892 Y79.752 E3.3572
G1 X87.767 Y80.079 E3.3719
G1 X87.474 Y80.760 E3.4029
G1 X87.150 Y81.415 E3.4335
G1 X86.792 Y82.051 E3.4641
G1 X86.400 Y82.669 E3.4948
G1 X85.974 Y83.267 E3.5256
G1 X85.519 Y83.839 E3.5562
G1 X85.034 Y84.386 E3.5868
G1 X84.662 Y84.763 E3.6091
G1 X84.521 Y84.906 F1080
G1 X84.871 Y85.269 F4800
G92 E0
G1 X84.310 Y85.780 E0.0318 F1080
G1 X83.719 Y86.263 E0.0638
G1 X83.423 Y86.486 E0.0793
G1 X82.796 Y86.921 E0.1113
G1 X82.150 Y87.319 E0.1431
G1 X81.480 Y87.685 E0.1751
G1 X81.149 Y87.848 E0.1906
G1 X80.451 Y88.159 E0.2226
G1 X79.743 Y88.431 E0.2543
G1 X79.021 Y88.664 E0.2861
G1 X78.290 Y88.859 E0.3179
G1 X77.542 Y89.015 E0.3499
G1 X77.178 Y89.076 E0.3653
G1 X76.420 Y89.173 E0.3973
G1 X75.664 Y89.228 E0.4291
G1 X74.905 Y89.243 E0.4609
G1 X74.152 Y89.218 E0.4925
G1 X73.396 Y89.153 E0.5243
G1 X72.640 Y89.047 E0.5563
G1 X72.275 Y88.981 E0.5719
G1 X71.526 Y88.814 E0.6040
G1 X71.166 Y88.718 E0.6196
G1 X70.437 Y88.493 E0.6516
G1 X69.728 Y88.232 E0.6833
G1 X69.029 Y87.932 E0.7152
G1 X68.349 Y87.596 E0.7469
G1 X67.689 Y87.225 E0.7786
G1 X67.049 Y86.818 E0.8104
G1 X66.428 Y86.376 E0.8424
G1 X66.134 Y86.148 E0.8580
G1 X65.549 Y85.657 E0.8900
G1 X64.996 Y85.139 E0.9217
G1 X64.471 Y84.593 E0.9535
G1 X63.975 Y84.019 E0.9853
G1 X63.510 Y83.418 E1.0171
G1 X63.076 Y82.791 E1.0491
G1 X62.878 Y82.479 E1.0646
G1 X62.496 Y81.821 E1.0965
G1 X62.149 Y81.143 E1.1283
G1 X61.841 Y80.452 E1.1600
G1 X61.569 Y79.744 E1.1918
G1 X61.337 Y79.025 E1.2235
G1 X61.140 Y78.286 E1.2556
G1 X61.060 Y77.925 E1.2710
G1 X60.922 Y77.169 E1.3033
G1 X60.871 Y76.803 E1.3188
G1 X60.794 Y76.043 E1.3508
G1 X60.759 Y75.285 E1.3826
G1 X60.764 Y74.527 E1.4143
G1 X60.810 Y73.770 E1.4461
G1 X60.895 Y73.016 E1.4779
G1 X61.020 Y72.272 E1.5095
G1 X61.185 Y71.531 E1.5414
G1 X61.391 Y70.794 E1.5734
G1 X61.505 Y70.442 E1.5889
G1 X61.769 Y69.725 E1.6209
G1 X62.067 Y69.031 E1.6526
G1 X62.404 Y68.349 E1.6845
G1 X62.776 Y67.688 E1.7163
G1 X63.184 Y67.045 E1.7482
G1 X63.400 Y66.734 E1.7641
G1 X63.619 Y66.435 E1.7796
G1 X64.098 Y65.833 E1.8118
G1 X64.340 Y65.553 E1.8273
G1 X64.859 Y64.997 E1.8592
G1 X65.409 Y64.469 E1.8911
G1 X65.685 Y64.224 E1.9066
G1 X66.277 Y63.740 E1.9386
G1 X66.888 Y63.292 E1.9704
G1 X67.525 Y62.875 E2.0023
G1 X68.179 Y62.496 E2.0340
G1 X68.858 Y62.149 E2.0659
G1 X69.196 Y61.992 E2.0816
G1 X69.901 Y61.700 E2.1135
G1 X70.615 Y61.448 E2.1453
G1 X71.342 Y61.234 E2.1770
G1 X72.081 Y61.059 E2.2088
G1 X72.827 Y60.923 E2.2406
G1 X73.580 Y60.827 E2.2724
G1 X74.336 Y60.772 E2.3042
G1 X75.095 Y60.757 E2.3360
G1 X75.848 Y60.782 E2.3676
G1 X76.609 Y60.847 E2.3996
G1 X76.975 Y60.894 E2.4151
G1 X77.729 Y61.020 E2.4471
G1 X78.474 Y61.186 E2.4791
G1 X78.834 Y61.282 E2.4947
G1 X79.563 Y61.507 E2.5267
G1 X80.275 Y61.769 E2.5585
G1 X80.971 Y62.068 E2.5902
G1 X81.651 Y62.404 E2.6220
G1 X82.311 Y62.775 E2.6537
G1 X82.951 Y63.182 E2.6855
G1 X83.569 Y63.622 E2.7173
G1 X84.163 Y64.095 E2.7491
G1 X84.729 Y64.597 E2.7808
G1 X85.271 Y65.131 E2.8127
G1 X85.783 Y65.694 E2.8446
G1 X86.022 Y65.977 E2.8601
G1 X86.490 Y66.582 E2.8922
G1 X86.920 Y67.203 E2.9239
G1 X87.319 Y67.850 E2.9557
G1 X87.681 Y68.514 E2.9874
G1 X88.010 Y69.201 E3.0193
G1 X88.158 Y69.545 E3.0350
G1 X88.430 Y70.255 E3.0669
G1 X88.664 Y70.976 E3.0987
G1 X88.859 Y71.710 E3.1305
G1 X89.014 Y72.454 E3.1623
G1 X89.130 Y73.200 E3.1940
G1 X89.205 Y73.954 E3.2257
G1 X89.241 Y74.716 E3.2577
G1 X89.244 Y75.086 E3.2732
G1 X89.218 Y75.849 E3.3052
G1 X89.153 Y76.605 E3.3370
G1 X89.047 Y77.361 E3.3690
G1 X88.981 Y77.724 E3.3845
G1 X88.814 Y78.471 E3.4165
G1 X88.610 Y79.202 E3.4483
G1 X88.366 Y79.923 E3.4802
G1 X88.233 Y80.269 E3.4958
G1 X87.932 Y80.971 E3.5278
G1 X87.596 Y81.650 E3.5595
G1 X87.225 Y82.310 E3.5912
G1 X86.818 Y82.951 E3.6231
G1 X86.377 Y83.570 E3.6549
G1 X85.905 Y84.163 E3.6867
G1 X85.402 Y84.730 E3.7184
G1 X85.011 Y85.127 E3.7418
G1 X84.871 Y85.269 F1080
; outer perimeter
G1 X85.220 Y85.633 F4800
G92 E0
G1 X84.639 Y86.162 E0.0329 F720
G1 X84.031 Y86.660 E0.0659
G1 X83.719 Y86.895 E0.0823
G1 X83.072 Y87.343 E0.1152
G1 X82.403 Y87.755 E0.1481
G1 X81.712 Y88.132 E0.1811
G1 X81.363 Y88.305 E0.1975
G1 X80.644 Y88.625 E0.2305
G1 X79.911 Y88.906 E0.2634
G1 X79.164 Y89.148 E0.2963
G1 X78.406 Y89.349 E0.3291
G1 X77.636 Y89.511 E0.3621
G1 X77.252 Y89.575 E0.3784
G1 X76.470 Y89.674 E0.4114
G1 X75.687 Y89.732 E0.4443
G1 X74.902 Y89.748 E0.4773
G1 X74.122 Y89.722 E0.5100
G1 X73.339 Y89.654 E0.5429
G1 X72.559 Y89.545 E0.5759
G1 X72.175 Y89.475 E0.5923
G1 X71.406 Y89.303 E0.6253
G1 X71.027 Y89.203 E0.6417
G1 X70.275 Y88.971 E0.6747
G1 X69.541 Y88.700 E0.7075
G1 X68.817 Y88.389 E0.7405
G1 X68.114 Y88.041 E0.7734
G1 X67.431 Y87.657 E0.8062
G1 X66.768 Y87.236 E0.8391
G1 X66.128 Y86.781 E0.8720
G1 X65.818 Y86.541 E0.8885
G1 X65.215 Y86.034 E0.9215
G1 X64.642 Y85.498 E0.9543
G1 X64.098 Y84.932 E0.9872
G1 X63.585 Y84.338 E1.0202
G1 X63.104 Y83.717 E1.0531
G1 X62.656 Y83.070 E1.0861
G1 X62.447 Y82.741 E1.1024
G1 X62.053 Y82.062 E1.1353
G1 X61.694 Y81.361 E1.1683
G1 X61.375 Y80.645 E1.2011
G1 X61.094 Y79.912 E1.2340
G1 X60.853 Y79.168 E1.2668
G1 X60.651 Y78.406 E1.2999
G1 X60.566 Y78.025 E1.3162
G1 X60.424 Y77.249 E1.3493
G1 X60.370 Y76.863 E1.3656
G1 X60.292 Y76.080 E1.3986
G1 X60.255 Y75.295 E1.4315
G1 X60.260 Y74.510 E1.4644
G1 X60.307 Y73.726 E1.4973
G1 X60.396 Y72.945 E1.5302
G1 X60.525 Y72.175 E1.5630
G1 X60.696 Y71.408 E1.5959
G1 X60.909 Y70.649 E1.6289
G1 X61.029 Y70.277 E1.6453
G1 X61.301 Y69.539 E1.6783
G1 X61.610 Y68.819 E1.7111
G1 X61.959 Y68.113 E1.7441
G1 X62.344 Y67.429 E1.7770
G1 X62.764 Y66.766 E1.8099
G1 X62.990 Y66.441 E1.8265
G1 X63.218 Y66.129 E1.8427
G1 X63.710 Y65.511 E1.8758
G1 X63.965 Y65.216 E1.8921
G1 X64.501 Y64.643 E1.9250
G1 X65.067 Y64.099 E1.9579
G1 X65.358 Y63.841 E1.9742
G1 X65.968 Y63.341 E2.0073
G1 X66.601 Y62.877 E2.0402
G1 X67.261 Y62.446 E2.0732
G1 X67.938 Y62.053 E2.1060
G1 X68.637 Y61.695 E2.1389
G1 X68.994 Y61.530 E2.1554
G1 X69.720 Y61.230 E2.1883
G1 X70.460 Y60.968 E2.2212
G1 X71.213 Y60.747 E2.2541
G1 X71.977 Y60.565 E2.2870
G1 X72.750 Y60.425 E2.3199
G1 X73.530 Y60.326 E2.3529
G1 X74.313 Y60.268 E2.3858
G1 X75.098 Y60.252 E2.4187
G1 X75.878 Y60.278 E2.4514
G1 X76.662 Y60.346 E2.4844
G1 X77.049 Y60.395 E2.5007
G1 X77.825 Y60.525 E2.5337
G1 X78.594 Y60.697 E2.5667
G1 X78.973 Y60.797 E2.5832
G1 X79.725 Y61.029 E2.6161
G1 X80.461 Y61.301 E2.6490
G1 X81.183 Y61.611 E2.6819
G1 X81.886 Y61.959 E2.7148
G1 X82.569 Y62.343 E2.7477
G1 X83.232 Y62.764 E2.7806
G1 X83.873 Y63.220 E2.8135
G1 X84.487 Y63.709 E2.8464
G1 X85.073 Y64.228 E2.8793
G1 X85.634 Y64.782 E2.9123
G1 X86.163 Y65.362 E2.9452
G1 X86.414 Y65.661 E2.9615
G1 X86.896 Y66.283 E2.9945
G1 X87.342 Y66.928 E3.0274
