; G-Code generated by Simplify3D(R) Version 4.0.0
; Oct 11, 2019 at 6:05:17 PM
; Settings Summary
;   processName,Process1
;   applyToModels,oozing_test
;   profileName,Z6
;   profileVersion,2019-10-11 12:28:38
;   baseProfile,Default (modified)
;   printMaterial,PLA
;   printQuality,Medium
;   printExtruders,
;   extruderName,Primary Extruder
;   extruderToolheadNumber,0
;   extruderDiameter,0.4
;   extruderAutoWidth,1
;   extruderWidth,0.48
;   extrusionMultiplier,1
;   extruderUseRetract,1
;   extruderRetractionDistance,5
;   extruderExtraRestartDistance,0
;   extruderRetractionZLift,1
;   extruderRetractionSpeed,1800
;   extruderUseCoasting,1
;   extruderCoastingDistance,0.2
;   extruderUseWipe,1
;   extruderWipeDistance,5
;   primaryExtruder,0
;   layerHeight,0.2
;   topSolidLayers,5
;   bottomSolidLayers,4
;   perimeterOutlines,3
;   printPerimetersInsideOut,1
;   startPointOption,3
;   startPointOriginX,110
;   startPointOriginY,110
;   sequentialIslands,0
;   spiralVaseMode,0
;   firstLayerHeightPercentage,95
;   firstLayerWidthPercentage,105
;   firstLayerUnderspeed,0.4
;   useRaft,0
;   raftExtruder,0
;   raftTopLayers,3
;   raftBaseLayers,2
;   raftOffset,3
;   raftSeparationDistance,0.14
;   raftTopInfill,100
;   aboveRaftSpeedMultiplier,0.3
;   useSkirt,0
;   skirtExtruder,999
;   skirtLayers,2
;   skirtOutlines,2
;   skirtOffset,4
;   usePrimePillar,0
;   primePillarExtruder,999
;   primePillarWidth,12
;   primePillarLocation,7
;   primePillarSpeedMultiplier,1
;   useOozeShield,0
;   oozeShieldExtruder,999
;   oozeShieldOffset,2
;   oozeShieldOutlines,1
;   oozeShieldSidewallShape,1
;   oozeShieldSidewallAngle,30
;   oozeShieldSpeedMultiplier,1
;   infillExtruder,0
;   internalInfillPattern,Rectilinear
;   externalInfillPattern,Rectilinear
;   infillPercentage,30
;   outlineOverlapPercentage,15
;   infillExtrusionWidthPercentage,100
;   minInfillLength,5
;   infillLayerInterval,1
;   internalInfillAngles,45,-45
;   overlapInternalInfillAngles,0
;   externalInfillAngles,45,-45
;   generateSupport,1
;   supportExtruder,0
;   supportInfillPercentage,40
;   supportExtraInflation,0
;   supportBaseLayers,2
;   denseSupportExtruder,0
;   denseSupportLayers,2
;   denseSupportInfillPercentage,70
;   supportLayerInterval,1
;   supportHorizontalPartOffset,0.3
;   supportUpperSeparationLayers,1
;   supportLowerSeparationLayers,1
;   supportType,1
;   supportGridSpacing,4
;   maxOverhangAngle,45
;   supportAngles,45
;   temperatureName,Primary Extruder,bed
;   temperatureNumber,0,0
;   temperatureSetpointCount,1,1
;   temperatureSetpointLayers,1,1
;   temperatureSetpointTemperatures,205,60
;   temperatureStabilizeAtStartup,1,1
;   temperatureHeatedBed,0,1
;   temperatureRelayBetweenLayers,0,0
;   temperatureRelayBetweenLoops,0,0
;   fanLayers,1,2
;   fanSpeeds,0,100
;   blipFanToFullPower,0
;   adjustSpeedForCooling,1
;   minSpeedLayerTime,15
;   minCoolingSpeedSlowdown,25
;   increaseFanForCooling,0
;   minFanLayerTime,45
;   maxCoolingFanSpeed,100
;   increaseFanForBridging,0
;   bridgingFanSpeed,100
;   use5D,1
;   relativeEdistances,0
;   allowEaxisZeroing,1
;   independentExtruderAxes,0
;   includeM10123,0
;   stickySupport,1
;   applyToolheadOffsets,0
;   gcodeXoffset,0
;   gcodeYoffset,0
;   gcodeZoffset,0
;   overrideMachineDefinition,1
;   machineTypeOverride,0
;   strokeXoverride,150
;   strokeYoverride,150
;   strokeZoverride,150
;   originOffsetXoverride,0
;   originOffsetYoverride,0
;   originOffsetZoverride,0
;   homeXdirOverride,-1
;   homeYdirOverride,-1
;   homeZdirOverride,-1
;   flipXoverride,1
;   flipYoverride,-1
;   flipZoverride,1
;   toolheadOffsets,0,0|0,0|0,0|0,0|0,0|0,0
;   overrideFirmwareConfiguration,0
;   firmwareTypeOverride,RepRap (Marlin/Repetier/Sprinter)
;   GPXconfigOverride,r2
;   baudRateOverride,115200
;   overridePrinterModels,0
;   printerModelsOverride
;   startingGcode,G28 ; home all axes,,G1 Z5 F3000 ; lift,,G1 X5 Y10 F1500 ; move to prime,,G1 Z0.2 F3000 ; get ready to prime,,G92 E0 ; reset extrusion distance,,G1 Y80 E10 F600 ; prime nozzle,,G1 Y100 F5000 ; quick wipe
;   layerChangeGcode,
;   retractionGcode,
;   toolChangeGcode,
;   endingGcode,G28 X0 ; home x axis,,M106 S0 ; turn off cooling fan,,M104 S0 ; turn off extruder,,M140 S0 ; turn off bed,,M84 ; disable motors
;   exportFileFormat,gcode
;   celebration,0
;   celebrationSong,Random Song
;   postProcessing,
;   defaultSpeed,3600
;   outlineUnderspeed,0.5
;   solidInfillUnderspeed,0.8
;   supportUnderspeed,0.8
;   rapidXYspeed,4800
;   rapidZspeed,1000
;   minBridgingArea,50
;   bridgingExtraInflation,0
;   bridgingExtrusionMultiplier,1
;   bridgingSpeedMultiplier,1
;   useFixedBridgingAngle,0
;   fixedBridgingAngle,0
;   applyBridgingToPerimeters,0
;   filamentDiameters,1.75|1.75|1.75|1.75|1.75|1.75
;   filamentPricesPerKg,46|46|46|46|46|46
;   filamentDensities,1.25|1.25|1.25|1.25|1.25|1.25
;   useMinPrintHeight,0
;   minPrintHeight,0
;   useMaxPrintHeight,0
;   maxPrintHeight,1
;   useDiaphragm,0
;   diaphragmLayerInterval,20
;   robustSlicing,1
;   mergeAllIntoSolid,0
;   onlyRetractWhenCrossingOutline,1
;   retractBetweenLayers,1
;   useRetractionMinTravel,0
;   retractionMinTravel,3
;   retractWhileWiping,0
;   onlyWipeOutlines,1
;   avoidCrossingOutline,0
;   maxMovementDetourFactor,3
;   toolChangeRetractionDistance,12
;   toolChangeExtraRestartDistance,-0.5
;   toolChangeRetractionSpeed,600
;   externalThinWallType,0
;   internalThinWallType,2
;   thinWallAllowedOverlapPercentage,10
;   singleExtrusionMinLength,1
;   singleExtrusionMinPrintingWidthPercentage,50
;   singleExtrusionMaxPrintingWidthPercentage,200
;   singleExtrusionEndpointExtension,0.2
;   horizontalSizeCompensation,0
G90
M82
M106 S0
M140 S60
M190 S60
M104 S205 T0
M109 S205 T0
G28 ; home all axes
G1 Z5 F3000 ; lift
G1 X5 Y10 F1500 ; move to prime
G1 Z0.2 F3000 ; get ready to prime
G92 E0 ; reset extrusion distance
G1 Y80 E10 F600 ; prime nozzle
G1 Y100 F5000 ; quick wipe
G92 E0
G1 E-5.0000 F1800
G1 Z1.190 F1000
; process Process1
; layer 1, Z = 0.190
T0
; tool H0.200 W0.504
; inner perimeter
G1 X84.715 Y84.715 F4800
G1 Z0.190 F1000
G1 E0.0000 F540
G92 E0
G1 X84.187 Y85.217 E0.0305 F1080
G1 X83.628 Y85.693 E0.0613
G1 X83.048 Y86.136 E0.0919
G1 X82.438 Y86.553 E0.1228
G1 X82.141 Y86.738 E0.1375
G1 X81.498 Y87.106 E0.1685
G1 X80.837 Y87.438 E0.1995
G1 X80.518 Y87.583 E0.2142
G1 X79.833 Y87.862 E0.2452
G1 X79.144 Y88.100 E0.2758
G1 X78.433 Y88.304 E0.3068
G1 X78.093 Y88.387 E0.3214
G1 X77.368 Y88.534 E0.3525
G1 X76.643 Y88.641 E0.3832
G1 X75.915 Y88.709 E0.4138
G1 X75.175 Y88.739 E0.4448
G1 X74.826 Y88.739 E0.4595
G1 X74.087 Y88.709 E0.4905
G1 X73.358 Y88.641 E0.5211
G1 X72.635 Y88.534 E0.5518
G1 X71.921 Y88.390 E0.5823
G1 X71.211 Y88.207 E0.6130
G1 X70.512 Y87.986 E0.6438
G1 X69.827 Y87.729 E0.6744
G1 X69.158 Y87.436 E0.7050
G1 X68.503 Y87.106 E0.7357
G1 X67.864 Y86.741 E0.7666
G1 X67.566 Y86.555 E0.7813
G1 X66.956 Y86.138 E0.8123
G1 X66.373 Y85.694 E0.8430
G1 X65.811 Y85.214 E0.8740
G1 X65.554 Y84.978 E0.8886
G1 X65.030 Y84.454 E0.9196
G1 X64.542 Y83.911 E0.9503
G1 X64.082 Y83.341 E0.9809
G1 X63.649 Y82.742 E1.0119
G1 X63.455 Y82.450 E1.0266
G1 X63.072 Y81.819 E1.0575
G1 X62.725 Y81.172 E1.0883
G1 X62.414 Y80.511 E1.1189
G1 X62.139 Y79.834 E1.1496
G1 X61.900 Y79.142 E1.1802
G1 X61.698 Y78.441 E1.2108
G1 X61.534 Y77.726 E1.2416
G1 X61.408 Y77.005 E1.2722
G1 X61.319 Y76.274 E1.3031
G1 X61.291 Y75.923 E1.3178
G1 X61.262 Y75.186 E1.3487
G1 X61.271 Y74.454 E1.3794
G1 X61.320 Y73.722 E1.4102
G1 X61.407 Y72.999 E1.4407
G1 X61.533 Y72.277 E1.4714
G1 X61.697 Y71.563 E1.5021
G1 X61.901 Y70.854 E1.5330
G1 X62.011 Y70.522 E1.5477
G1 X62.272 Y69.827 E1.5788
G1 X62.564 Y69.159 E1.6093
G1 X62.897 Y68.497 E1.6404
G1 X63.066 Y68.190 E1.6551
G1 X63.449 Y67.560 E1.6860
G1 X63.862 Y66.955 E1.7167
G1 X64.311 Y66.367 E1.7477
G1 X64.543 Y66.087 E1.7629
G1 X64.774 Y65.824 E1.7776
G1 X65.285 Y65.285 E1.8087
G1 X65.813 Y64.783 E1.8392
G1 X66.371 Y64.308 E1.8699
G1 X66.953 Y63.863 E1.9007
G1 X67.562 Y63.447 E1.9316
G1 X67.861 Y63.261 E1.9463
G1 X68.501 Y62.895 E1.9772
G1 X69.156 Y62.565 E2.0080
G1 X69.825 Y62.272 E2.0385
G1 X70.510 Y62.015 E2.0692
G1 X71.215 Y61.792 E2.1002
G1 X71.552 Y61.700 E2.1149
G1 X72.274 Y61.534 E2.1459
G1 X72.995 Y61.408 E2.1766
G1 X73.718 Y61.320 E2.2071
G1 X74.456 Y61.271 E2.2381
G1 X74.805 Y61.262 E2.2527
G1 X75.545 Y61.271 E2.2837
G1 X76.275 Y61.320 E2.3144
G1 X77.002 Y61.407 E2.3451
G1 X77.723 Y61.533 E2.3758
G1 X78.436 Y61.697 E2.4064
G1 X79.141 Y61.899 E2.4372
G1 X79.838 Y62.140 E2.4681
G1 X80.164 Y62.268 E2.4827
G1 X80.841 Y62.564 E2.5137
G1 X81.496 Y62.893 E2.5444
G1 X82.131 Y63.256 E2.5751
G1 X82.747 Y63.653 E2.6058
G1 X83.344 Y64.084 E2.6367
G1 X83.620 Y64.301 E2.6514
G1 X84.184 Y64.781 E2.6824
G1 X84.715 Y65.285 E2.7131
G1 X85.217 Y65.814 E2.7436
G1 X85.693 Y66.372 E2.7744
G1 X86.140 Y66.958 E2.8053
G1 X86.343 Y67.246 E2.8200
G1 X86.743 Y67.867 E2.8510
G1 X87.105 Y68.500 E2.8815
G1 X87.434 Y69.155 E2.9123
G1 X87.728 Y69.825 E2.9429
G1 X87.986 Y70.511 E2.9736
G1 X88.206 Y71.207 E3.0042
G1 X88.389 Y71.917 E3.0349
G1 X88.535 Y72.639 E3.0658
G1 X88.591 Y72.986 E3.0806
G1 X88.680 Y73.719 E3.1115
G1 X88.728 Y74.449 E3.1422
G1 X88.738 Y75.182 E3.1729
G1 X88.709 Y75.910 E3.2034
G1 X88.641 Y76.640 E3.2341
G1 X88.534 Y77.365 E3.2648
G1 X88.390 Y78.080 E3.2954
G1 X88.205 Y78.797 E3.3265
G1 X88.104 Y79.133 E3.3411
G1 X87.862 Y79.831 E3.3721
G1 X87.587 Y80.509 E3.4028
G1 X87.272 Y81.178 E3.4338
G1 X87.111 Y81.489 E3.4484
G1 X86.744 Y82.132 E3.4794
G1 X86.348 Y82.745 E3.5100
G1 X85.919 Y83.340 E3.5408
G1 X85.455 Y83.915 E3.5718
G1 X85.225 Y84.178 E3.5864
G1 X84.853 Y84.570 E3.6091
G1 X84.715 Y84.715 F1080
G1 X85.072 Y85.072 F4800
G92 E0
G1 X84.524 Y85.592 E0.0317 F1080
G1 X83.944 Y86.085 E0.0635
G1 X83.343 Y86.544 E0.0953
G1 X82.714 Y86.974 E0.1272
G1 X82.400 Y87.171 E0.1427
G1 X81.737 Y87.550 E0.1747
G1 X81.055 Y87.893 E0.2067
G1 X80.717 Y88.046 E0.2222
G1 X80.010 Y88.333 E0.2542
G1 X79.296 Y88.580 E0.2859
G1 X78.563 Y88.791 E0.3179
G1 X78.203 Y88.879 E0.3334
G1 X77.454 Y89.031 E0.3654
G1 X76.704 Y89.141 E0.3972
G1 X75.948 Y89.212 E0.4290
G1 X75.185 Y89.243 E0.4610
G1 X74.816 Y89.243 E0.4765
G1 X74.053 Y89.212 E0.5085
G1 X73.298 Y89.142 E0.5403
G1 X72.548 Y89.031 E0.5720
G1 X71.808 Y88.881 E0.6037
G1 X71.072 Y88.691 E0.6355
G1 X70.347 Y88.462 E0.6674
G1 X69.637 Y88.196 E0.6992
G1 X68.944 Y87.892 E0.7309
G1 X68.265 Y87.551 E0.7627
G1 X67.606 Y87.174 E0.7945
G1 X67.290 Y86.977 E0.8101
G1 X66.660 Y86.547 E0.8421
G1 X66.057 Y86.086 E0.8739
G1 X65.476 Y85.592 E0.9059
G1 X65.205 Y85.341 E0.9214
G1 X64.665 Y84.801 E0.9534
G1 X64.158 Y84.237 E0.9851
G1 X63.682 Y83.647 E1.0169
G1 X63.235 Y83.030 E1.0489
G1 X63.030 Y82.720 E1.0644
G1 X62.634 Y82.069 E1.0963
G1 X62.275 Y81.399 E1.1282
G1 X61.952 Y80.713 E1.1600
G1 X61.667 Y80.011 E1.1917
G1 X61.419 Y79.293 E1.2236
G1 X61.210 Y78.568 E1.2552
G1 X61.039 Y77.826 E1.2871
G1 X60.909 Y77.079 E1.3189
G1 X60.818 Y76.324 E1.3508
G1 X60.788 Y75.953 E1.3663
G1 X60.758 Y75.193 E1.3982
G1 X60.768 Y74.433 E1.4301
G1 X60.818 Y73.675 E1.4619
G1 X60.908 Y72.926 E1.4935
G1 X61.039 Y72.177 E1.5254
G1 X61.209 Y71.437 E1.5572
G1 X61.419 Y70.705 E1.5891
G1 X61.535 Y70.354 E1.6046
G1 X61.804 Y69.637 E1.6367
G1 X62.108 Y68.945 E1.6684
G1 X62.451 Y68.261 E1.7004
G1 X62.630 Y67.937 E1.7160
G1 X63.025 Y67.287 E1.7478
G1 X63.454 Y66.659 E1.7797
G1 X63.916 Y66.053 E1.8116
G1 X64.160 Y65.760 E1.8276
G1 X64.401 Y65.484 E1.8430
G1 X64.928 Y64.928 E1.8751
G1 X65.476 Y64.408 E1.9067
G1 X66.054 Y63.916 E1.9386
G1 X66.658 Y63.455 E1.9704
G1 X67.286 Y63.026 E2.0023
G1 X67.601 Y62.828 E2.0179
G1 X68.262 Y62.451 E2.0498
G1 X68.942 Y62.109 E2.0816
G1 X69.635 Y61.805 E2.1133
G1 X70.345 Y61.538 E2.1451
G1 X71.072 Y61.308 E2.1771
G1 X71.429 Y61.211 E2.1926
G1 X72.174 Y61.039 E2.2247
G1 X72.921 Y60.909 E2.2564
G1 X73.671 Y60.818 E2.2881
G1 X74.432 Y60.767 E2.3201
G1 X74.801 Y60.758 E2.3355
G1 X75.565 Y60.767 E2.3675
G1 X76.321 Y60.818 E2.3993
G1 X77.075 Y60.908 E2.4311
G1 X77.823 Y61.039 E2.4629
G1 X78.563 Y61.209 E2.4947
G1 X79.293 Y61.419 E2.5266
G1 X80.012 Y61.667 E2.5585
G1 X80.357 Y61.802 E2.5740
G1 X81.055 Y62.107 E2.6059
G1 X81.734 Y62.449 E2.6378
G1 X82.393 Y62.825 E2.6696
G1 X83.031 Y63.236 E2.7014
G1 X83.648 Y63.682 E2.7333
G1 X83.940 Y63.911 E2.7488
G1 X84.521 Y64.406 E2.7808
G1 X85.072 Y64.928 E2.8126
G1 X85.592 Y65.477 E2.8443
G1 X86.085 Y66.056 E2.8762
G1 X86.547 Y66.660 E2.9081
G1 X86.761 Y66.964 E2.9236
G1 X87.174 Y67.606 E2.9556
G1 X87.549 Y68.261 E2.9873
G1 X87.891 Y68.941 E3.0191
G1 X88.195 Y69.635 E3.0509
G1 X88.462 Y70.347 E3.0828
G1 X88.690 Y71.068 E3.1145
G1 X88.880 Y71.804 E3.1463
G1 X89.031 Y72.549 E3.1782
G1 X89.091 Y72.916 E3.1938
G1 X89.182 Y73.672 E3.2257
G1 X89.232 Y74.429 E3.2575
G1 X89.242 Y75.189 E3.2893
G1 X89.212 Y75.944 E3.3210
G1 X89.142 Y76.700 E3.3528
G1 X89.031 Y77.452 E3.3847
G1 X88.881 Y78.193 E3.4164
G1 X88.690 Y78.933 E3.4484
G1 X88.583 Y79.288 E3.4639
G1 X88.334 Y80.009 E3.4959
G1 X88.049 Y80.711 E3.5276
G1 X87.724 Y81.401 E3.5596
G1 X87.554 Y81.730 E3.5751
G1 X87.175 Y82.393 E3.6071
G1 X86.765 Y83.029 E3.6388
G1 X86.320 Y83.646 E3.6707
G1 X85.840 Y84.240 E3.7027
G1 X85.597 Y84.517 E3.7182
G1 X85.209 Y84.927 E3.7418
G1 X85.072 Y85.072 F1080
; outer perimeter
G1 X85.428 Y85.428 F4800
G92 E0
G1 X84.861 Y85.966 E0.0328 F720
G1 X84.261 Y86.478 E0.0658
G1 X83.638 Y86.953 E0.0986
G1 X82.990 Y87.396 E0.1316
G1 X82.659 Y87.603 E0.1479
G1 X81.975 Y87.994 E0.1809
G1 X81.272 Y88.348 E0.2139
G1 X80.917 Y88.509 E0.2303
G1 X80.188 Y88.805 E0.2632
G1 X79.449 Y89.061 E0.2960
G1 X78.692 Y89.278 E0.3290
G1 X78.313 Y89.371 E0.3453
G1 X77.541 Y89.527 E0.3784
G1 X76.764 Y89.642 E0.4113
G1 X75.982 Y89.715 E0.4442
G1 X75.195 Y89.747 E0.4772
G1 X74.806 Y89.747 E0.4935
G1 X74.020 Y89.715 E0.5265
G1 X73.237 Y89.642 E0.5594
G1 X72.462 Y89.528 E0.5923
G1 X71.695 Y89.373 E0.6250
G1 X70.933 Y89.176 E0.6580
G1 X70.183 Y88.939 E0.6910
G1 X69.447 Y88.663 E0.7239
G1 X68.730 Y88.349 E0.7567
G1 X68.026 Y87.995 E0.7897
G1 X67.347 Y87.607 E0.8225
G1 X67.015 Y87.399 E0.8390
G1 X66.365 Y86.956 E0.8719
G1 X65.740 Y86.478 E0.9049
G1 X65.142 Y85.969 E0.9378
G1 X64.855 Y85.705 E0.9541
G1 X64.299 Y85.148 E0.9871
G1 X63.774 Y84.564 E1.0200
G1 X63.281 Y83.954 E1.0529
G1 X62.821 Y83.317 E1.0858
G1 X62.604 Y82.991 E1.1022
G1 X62.197 Y82.319 E1.1352
G1 X61.824 Y81.626 E1.1681
G1 X61.490 Y80.915 E1.2010
G1 X61.195 Y80.188 E1.2339
G1 X60.938 Y79.446 E1.2669
G1 X60.722 Y78.694 E1.2996
G1 X60.545 Y77.926 E1.3327
G1 X60.410 Y77.153 E1.3656
G1 X60.316 Y76.374 E1.3984
G1 X60.285 Y75.983 E1.4148
G1 X60.253 Y75.200 E1.4477
G1 X60.264 Y74.413 E1.4807
G1 X60.316 Y73.629 E1.5136
G1 X60.409 Y72.852 E1.5464
G1 X60.545 Y72.077 E1.5794
G1 X60.721 Y71.311 E1.6123
G1 X60.937 Y70.556 E1.6452
G1 X61.060 Y70.186 E1.6616
G1 X61.337 Y69.447 E1.6946
G1 X61.651 Y68.730 E1.7275
G1 X62.005 Y68.026 E1.7605
G1 X62.194 Y67.684 E1.7769
G1 X62.601 Y67.014 E1.8097
G1 X63.045 Y66.364 E1.8427
G1 X63.522 Y65.739 E1.8756
G1 X63.776 Y65.433 E1.8923
G1 X64.028 Y65.145 E1.9084
G1 X64.572 Y64.572 E1.9415
G1 X65.139 Y64.034 E1.9742
G1 X65.738 Y63.523 E2.0072
G1 X66.363 Y63.046 E2.0402
G1 X67.010 Y62.604 E2.0730
G1 X67.343 Y62.396 E2.0895
G1 X68.024 Y62.006 E2.1223
G1 X68.727 Y61.653 E2.1553
G1 X69.445 Y61.338 E2.1882
G1 X70.180 Y61.062 E2.2211
G1 X70.930 Y60.825 E2.2540
G1 X71.306 Y60.722 E2.2704
G1 X72.074 Y60.545 E2.3034
G1 X72.848 Y60.410 E2.3363
G1 X73.624 Y60.316 E2.3691
G1 X74.409 Y60.264 E2.4020
G1 X74.798 Y60.253 E2.4183
G1 X75.585 Y60.264 E2.4513
G1 X76.368 Y60.316 E2.4842
G1 X77.148 Y60.409 E2.5172
G1 X77.923 Y60.545 E2.5501
G1 X78.689 Y60.721 E2.5830
G1 X79.445 Y60.938 E2.6160
G1 X80.186 Y61.194 E2.6489
G1 X80.550 Y61.336 E2.6653
G1 X81.269 Y61.651 E2.6982
G1 X81.973 Y62.005 E2.7311
G1 X82.655 Y62.394 E2.7641
G1 X83.315 Y62.820 E2.7970
G1 X83.951 Y63.279 E2.8298
G1 X84.259 Y63.521 E2.8463
G1 X84.859 Y64.031 E2.8793
G1 X85.428 Y64.572 E2.9122
G1 X85.967 Y65.140 E2.9450
G1 X86.478 Y65.739 E2.9780
G1 X86.954 Y66.362 E3.0109
G1 X87.179 Y66.683 E3.0273
