; G-Code generated by Simplify3D(R) Version 4.0.0
; Oct 11, 2019 at 6:03:22 PM
; Settings Summary
;   processName,Process1
;   applyToModels,XY_Backlash_Test
;   profileName,Z6
;   profileVersion,2019-10-11 12:28:38
;   baseProfile,Default (modified)
;   printMaterial,PLA
;   printQuality,Medium
;   printExtruders,
;   extruderName,Primary Extruder
;   extruderToolheadNumber,0
;   extruderDiameter,0.4
;   extruderAutoWidth,1
;   extruderWidth,0.48
;   extrusionMultiplier,1
;   extruderUseRetract,1
;   extruderRetractionDistance,5
;   extruderExtraRestartDistance,0
;   extruderRetractionZLift,1
;   extruderRetractionSpeed,1800
;   extruderUseCoasting,1
;   extruderCoastingDistance,0.2
;   extruderUseWipe,1
;   extruderWipeDistance,5
;   primaryExtruder,0
;   layerHeight,0.2
;   topSolidLayers,5
;   bottomSolidLayers,4
;   perimeterOutlines,3
;   printPerimetersInsideOut,1
;   startPointOption,3
;   startPointOriginX,110
;   startPointOriginY,110
;   sequentialIslands,0
;   spiralVaseMode,0
;   firstLayerHeightPercentage,95
;   firstLayerWidthPercentage,105
;   firstLayerUnderspeed,0.4
;   useRaft,0
;   raftExtruder,0
;   raftTopLayers,3
;   raftBaseLayers,2
;   raftOffset,3
;   raftSeparationDistance,0.14
;   raftTopInfill,100
;   aboveRaftSpeedMultiplier,0.3
;   useSkirt,0
;   skirtExtruder,999
;   skirtLayers,2
;   skirtOutlines,2
;   skirtOffset,4
;   usePrimePillar,0
;   primePillarExtruder,999
;   primePillarWidth,12
;   primePillarLocation,7
;   primePillarSpeedMultiplier,1
;   useOozeShield,0
;   oozeShieldExtruder,999
;   oozeShieldOffset,2
;   oozeShieldOutlines,1
;   oozeShieldSidewallShape,1
;   oozeShieldSidewallAngle,30
;   oozeShieldSpeedMultiplier,1
;   infillExtruder,0
;   internalInfillPattern,Rectilinear
;   externalInfillPattern,Rectilinear
;   infillPercentage,30
;   outlineOverlapPercentage,15
;   infillExtrusionWidthPercentage,100
;   minInfillLength,5
;   infillLayerInterval,1
;   internalInfillAngles,45,-45
;   overlapInternalInfillAngles,0
;   externalInfillAngles,45,-45
;   generateSupport,1
;   supportExtruder,0
;   supportInfillPercentage,40
;   supportExtraInflation,0
;   supportBaseLayers,2
;   denseSupportExtruder,0
;   denseSupportLayers,2
;   denseSupportInfillPercentage,70
;   supportLayerInterval,1
;   supportHorizontalPartOffset,0.3
;   supportUpperSeparationLayers,1
;   supportLowerSeparationLayers,1
;   supportType,1
;   supportGridSpacing,4
;   maxOverhangAngle,45
;   supportAngles,45
;   temperatureName,Primary Extruder,bed
;   temperatureNumber,0,0
;   temperatureSetpointCount,1,1
;   temperatureSetpointLayers,1,1
;   temperatureSetpointTemperatures,205,60
;   temperatureStabilizeAtStartup,1,1
;   temperatureHeatedBed,0,1
;   temperatureRelayBetweenLayers,0,0
;   temperatureRelayBetweenLoops,0,0
;   fanLayers,1,2
;   fanSpeeds,0,100
;   blipFanToFullPower,0
;   adjustSpeedForCooling,1
;   minSpeedLayerTime,15
;   minCoolingSpeedSlowdown,25
;   increaseFanForCooling,0
;   minFanLayerTime,45
;   maxCoolingFanSpeed,100
;   increaseFanForBridging,0
;   bridgingFanSpeed,100
;   use5D,1
;   relativeEdistances,0
;   allowEaxisZeroing,1
;   independentExtruderAxes,0
;   includeM10123,0
;   stickySupport,1
;   applyToolheadOffsets,0
;   gcodeXoffset,0
;   gcodeYoffset,0
;   gcodeZoffset,0
;   overrideMachineDefinition,1
;   machineTypeOverride,0
;   strokeXoverride,150
;   strokeYoverride,150
;   strokeZoverride,150
;   originOffsetXoverride,0
;   originOffsetYoverride,0
;   originOffsetZoverride,0
;   homeXdirOverride,-1
;   homeYdirOverride,-1
;   homeZdirOverride,-1
;   flipXoverride,1
;   flipYoverride,-1
;   flipZoverride,1
;   toolheadOffsets,0,0|0,0|0,0|0,0|0,0|0,0
;   overrideFirmwareConfiguration,0
;   firmwareTypeOverride,RepRap (Marlin/Repetier/Sprinter)
;   GPXconfigOverride,r2
;   baudRateOverride,115200
;   overridePrinterModels,0
;   printerModelsOverride
;   startingGcode,G28 ; home all axes,,G1 Z5 F3000 ; lift,,G1 X5 Y10 F1500 ; move to prime,,G1 Z0.2 F3000 ; get ready to prime,,G92 E0 ; reset extrusion distance,,G1 Y80 E10 F600 ; prime nozzle,,G1 Y100 F5000 ; quick wipe
;   layerChangeGcode,
;   retractionGcode,
;   toolChangeGcode,
;   endingGcode,G28 X0 ; home x axis,,M106 S0 ; turn off cooling fan,,M104 S0 ; turn off extruder,,M140 S0 ; turn off bed,,M84 ; disable motors
;   exportFileFormat,gcode
;   celebration,0
;   celebrationSong,Random Song
;   postProcessing,
;   defaultSpeed,3600
;   outlineUnderspeed,0.5
;   solidInfillUnderspeed,0.8
;   supportUnderspeed,0.8
;   rapidXYspeed,4800
;   rapidZspeed,1000
;   minBridgingArea,50
;   bridgingExtraInflation,0
;   bridgingExtrusionMultiplier,1
;   bridgingSpeedMultiplier,1
;   useFixedBridgingAngle,0
;   fixedBridgingAngle,0
;   applyBridgingToPerimeters,0
;   filamentDiameters,1.75|1.75|1.75|1.75|1.75|1.75
;   filamentPricesPerKg,46|46|46|46|46|46
;   filamentDensities,1.25|1.25|1.25|1.25|1.25|1.25
;   useMinPrintHeight,0
;   minPrintHeight,0
;   useMaxPrintHeight,0
;   maxPrintHeight,1
;   useDiaphragm,0
;   diaphragmLayerInterval,20
;   robustSlicing,1
;   mergeAllIntoSolid,0
;   onlyRetractWhenCrossingOutline,1
;   retractBetweenLayers,1
;   useRetractionMinTravel,0
;   retractionMinTravel,3
;   retractWhileWiping,0
;   onlyWipeOutlines,1
;   avoidCrossingOutline,0
;   maxMovementDetourFactor,3
;   toolChangeRetractionDistance,12
;   toolChangeExtraRestartDistance,-0.5
;   toolChangeRetractionSpeed,600
;   externalThinWallType,0
;   internalThinWallType,2
;   thinWallAllowedOverlapPercentage,10
;   singleExtrusionMinLength,1
;   singleExtrusionMinPrintingWidthPercentage,50
;   singleExtrusionMaxPrintingWidthPercentage,200
;   singleExtrusionEndpointExtension,0.2
;   horizontalSizeCompensation,0
G90
M82
M106 S0
M140 S60
M190 S60
M104 S205 T0
M109 S205 T0
G28 ; home all axes
G1 Z5 F3000 ; lift
G1 X5 Y10 F1500 ; move to prime
G1 Z0.2 F3000 ; get ready to prime
G92 E0 ; reset extrusion distance
G1 Y80 E10 F600 ; prime nozzle
G1 Y100 F5000 ; quick wipe
G92 E0
G1 E-5.0000 F1800
G1 Z1.190 F1000
; process Process1
; layer 1, Z = 0.190
T0
; tool H0.200 W0.504
; inner perimeter
G1 X115.740 Y85.740 F4800
G1 Z0.190 F1000
G1 E0.0000 F540
G92 E0
G1 X34.260 Y85.740 E3.4146 F1080
G1 X34.260 Y64.260 E4.3148
G1 X115.740 Y64.260 E7.7295
G1 X115.740 Y85.540 E8.6213
G1 X115.740 Y85.740 F1080
G1 X116.244 Y86.244 F4800
G92 E0
G1 X33.756 Y86.244 E3.4569 F1080
G1 X33.756 Y63.756 E4.3993
G1 X116.244 Y63.756 E7.8562
G1 X116.244 Y86.044 E8.7902
G1 X116.244 Y86.244 F1080
; outer perimeter
G1 X116.748 Y86.748 F4800
G92 E0
G1 X33.252 Y86.748 E3.4991 F720
G1 X33.252 Y63.252 E4.4838
G1 X116.748 Y63.252 E7.9829
G1 X116.748 Y86.548 E8.9592
G1 X116.748 Y86.748 F720
G1 X111.748 Y86.748 F3600
; solid layer
G1 X115.295 Y64.688 F4800
G92 E0
G1 X115.312 Y64.705 E0.0010 F1152
G1 X115.312 Y65.418 E0.0309
G1 X114.582 Y64.688 E0.0741
G1 X113.869 Y64.688 E0.1040
G1 X115.312 Y66.131 E0.1895
G1 X115.312 Y66.844 E0.2194
G1 X113.156 Y64.688 E0.3471
G1 X112.444 Y64.688 E0.3770
G1 X115.312 Y67.556 E0.5469
G1 X115.312 Y68.269 E0.5768
G1 X111.731 Y64.688 E0.7890
G1 X111.018 Y64.688 E0.8189
G1 X115.312 Y68.982 E1.0734
G1 X115.312 Y69.695 E1.1032
G1 X110.305 Y64.688 E1.3999
G1 X109.593 Y64.688 E1.4298
G1 X115.312 Y70.407 E1.7688
G1 X115.312 Y71.120 E1.7986
G1 X108.880 Y64.688 E2.1798
G1 X108.167 Y64.688 E2.2097
G1 X115.312 Y71.833 E2.6331
G1 X115.312 Y72.546 E2.6630
G1 X107.454 Y64.688 E3.1287
G1 X106.741 Y64.688 E3.1586
G1 X115.312 Y73.259 E3.6665
G1 X115.312 Y73.971 E3.6963
G1 X106.029 Y64.688 E4.2465
G1 X105.316 Y64.688 E4.2764
G1 X115.312 Y74.684 E4.8688
G1 X115.312 Y75.397 E4.8987
G1 X104.603 Y64.688 E5.5333
G1 X103.890 Y64.688 E5.5632
G1 X115.312 Y76.110 E6.2401
G1 X115.312 Y76.822 E6.2699
G1 X103.178 Y64.688 E6.9891
G1 X102.465 Y64.688 E7.0190
G1 X115.312 Y77.535 E7.7803
G1 X115.312 Y78.248 E7.8102
G1 X101.752 Y64.688 E8.6138
G1 X101.039 Y64.688 E8.6437
G1 X115.312 Y78.961 E9.4896
G1 X115.312 Y79.673 E9.5194
G1 X100.327 Y64.688 E10.4075
G1 X99.614 Y64.688 E10.4374
G1 X115.312 Y80.386 E11.3678
G1 X115.312 Y81.099 E11.3976
G1 X98.901 Y64.688 E12.3702
G1 X98.188 Y64.688 E12.4001
G1 X115.312 Y81.812 E13.4149
G1 X115.312 Y82.524 E13.4448
G1 X97.476 Y64.688 E14.5019
G1 X96.763 Y64.688 E14.5318
G1 X115.312 Y83.237 E15.6311
G1 X115.312 Y83.950 E15.6610
G1 X96.050 Y64.688 E16.8025
G1 X95.337 Y64.688 E16.8324
G1 X115.312 Y84.663 E18.0162
G1 X115.312 Y85.312 E18.0434
G1 X115.248 Y85.312 E18.0461
G1 X94.624 Y64.688 E19.2683
G1 X93.912 Y64.688 E19.2982
G1 X114.535 Y85.312 E20.5205
G1 X113.822 Y85.312 E20.5504
G1 X93.199 Y64.688 E21.7726
G1 X92.486 Y64.688 E21.8025
G1 X113.109 Y85.312 E23.0248
G1 X112.397 Y85.312 E23.0546
G1 X91.773 Y64.688 E24.2769
G1 X91.061 Y64.688 E24.3068
G1 X111.684 Y85.312 E25.5290
G1 X110.971 Y85.312 E25.5589
G1 X90.348 Y64.688 E26.7812
G1 X89.635 Y64.688 E26.8110
G1 X110.258 Y85.312 E28.0333
G1 X109.546 Y85.312 E28.0632
G1 X88.922 Y64.688 E29.2854
G1 X88.210 Y64.688 E29.3153
G1 X108.833 Y85.312 E30.5376
G1 X108.120 Y85.312 E30.5674
G1 X87.497 Y64.688 E31.7897
G1 X86.784 Y64.688 E31.8196
G1 X107.407 Y85.312 E33.0418
G1 X106.695 Y85.312 E33.0717
G1 X86.071 Y64.688 E34.2940
G1 X85.359 Y64.688 E34.3238
G1 X105.982 Y85.312 E35.5461
G1 X105.269 Y85.312 E35.5760
G1 X84.646 Y64.688 E36.7982
G1 X83.933 Y64.688 E36.8281
G1 X104.556 Y85.312 E38.0504
G1 X103.843 Y85.312 E38.0803
G1 X83.220 Y64.688 E39.3025
G1 X82.508 Y64.688 E39.3324
G1 X103.131 Y85.312 E40.5547
G1 X102.418 Y85.312 E40.5845
G1 X81.795 Y64.688 E41.8068
G1 X81.082 Y64.688 E41.8367
G1 X101.705 Y85.312 E43.0589
G1 X100.992 Y85.312 E43.0888
G1 X80.369 Y64.688 E44.3111
G1 X79.656 Y64.688 E44.3409
G1 X100.280 Y85.312 E45.5632
G1 X99.567 Y85.312 E45.5931
G1 X78.944 Y64.688 E46.8153
G1 X78.231 Y64.688 E46.8452
G1 X98.854 Y85.312 E48.0675
G1 X98.141 Y85.312 E48.0973
G1 X77.518 Y64.688 E49.3196
G1 X76.805 Y64.688 E49.3495
G1 X97.429 Y85.312 E50.5717
G1 X96.716 Y85.312 E50.6016
G1 X76.093 Y64.688 E51.8239
G1 X75.380 Y64.688 E51.8538
G1 X96.003 Y85.312 E53.0760
G1 X95.290 Y85.312 E53.1059
G1 X74.667 Y64.688 E54.3282
G1 X73.954 Y64.688 E54.3580
G1 X94.578 Y85.312 E55.5803
G1 X93.865 Y85.312 E55.6102
G1 X73.242 Y64.688 E56.8324
G1 X72.529 Y64.688 E56.8623
G1 X93.152 Y85.312 E58.0846
G1 X92.439 Y85.312 E58.1144
G1 X71.816 Y64.688 E59.3367
G1 X71.103 Y64.688 E59.3666
G1 X91.726 Y85.312 E60.5888
G1 X91.014 Y85.312 E60.6187
G1 X70.391 Y64.688 E61.8410
G1 X69.678 Y64.688 E61.8708
G1 X90.301 Y85.312 E63.0931
G1 X89.588 Y85.312 E63.1230
G1 X68.965 Y64.688 E64.3452
G1 X68.252 Y64.688 E64.3751
G1 X88.875 Y85.312 E65.5974
G1 X88.163 Y85.312 E65.6272
G1 X67.539 Y64.688 E66.8495
G1 X66.827 Y64.688 E66.8794
G1 X87.450 Y85.312 E68.1016
G1 X86.737 Y85.312 E68.1315
G1 X66.114 Y64.688 E69.3538
G1 X65.401 Y64.688 E69.3837
G1 X86.024 Y85.312 E70.6059
G1 X85.312 Y85.312 E70.6358
G1 X64.688 Y64.688 E71.8581
G1 X63.976 Y64.688 E71.8879
G1 X84.599 Y85.312 E73.1102
G1 X83.886 Y85.312 E73.1401
G1 X63.263 Y64.688 E74.3623
G1 X62.550 Y64.688 E74.3922
G1 X83.173 Y85.312 E75.6145
G1 X82.461 Y85.312 E75.6443
G1 X61.837 Y64.688 E76.8666
G1 X61.125 Y64.688 E76.8965
G1 X81.748 Y85.312 E78.1187
G1 X81.035 Y85.312 E78.1486
G1 X60.412 Y64.688 E79.3709
G1 X59.699 Y64.688 E79.4007
G1 X80.322 Y85.312 E80.6230
G1 X79.610 Y85.312 E80.6529
G1 X58.986 Y64.688 E81.8751
G1 X58.274 Y64.688 E81.9050
G1 X78.897 Y85.312 E83.1273
G1 X78.184 Y85.312 E83.1572
G1 X57.561 Y64.688 E84.3794
G1 X56.848 Y64.688 E84.4093
G1 X77.471 Y85.312 E85.6316
G1 X76.758 Y85.312 E85.6614
G1 X56.135 Y64.688 E86.8837
G1 X55.422 Y64.688 E86.9136
G1 X76.046 Y85.312 E88.1358
G1 X75.333 Y85.312 E88.1657
G1 X54.710 Y64.688 E89.3880
G1 X53.997 Y64.688 E89.4178
G1 X74.620 Y85.312 E90.6401
G1 X73.907 Y85.312 E90.6700
G1 X53.284 Y64.688 E91.8922
G1 X52.571 Y64.688 E91.9221
G1 X73.195 Y85.312 E93.1444
G1 X72.482 Y85.312 E93.1742
G1 X51.859 Y64.688 E94.3965
G1 X51.146 Y64.688 E94.4264
G1 X71.769 Y85.312 E95.6486
G1 X71.056 Y85.312 E95.6785
G1 X50.433 Y64.688 E96.9008
G1 X49.720 Y64.688 E96.9306
G1 X70.344 Y85.312 E98.1529
G1 X69.631 Y85.312 E98.1828
G1 X49.008 Y64.688 E99.4050
G1 X48.295 Y64.688 E99.4349
G1 X68.918 Y85.312 E100.6572
G1 X68.205 Y85.312 E100.6871
G1 X47.582 Y64.688 E101.9093
G1 X46.869 Y64.688 E101.9392
G1 X67.493 Y85.312 E103.1615
G1 X66.780 Y85.312 E103.1913
G1 X46.157 Y64.688 E104.4136
G1 X45.444 Y64.688 E104.4435
G1 X66.067 Y85.312 E105.6657
G1 X65.354 Y85.312 E105.6956
G1 X44.731 Y64.688 E106.9179
G1 X44.018 Y64.688 E106.9477
G1 X64.641 Y85.312 E108.1700
G1 X63.929 Y85.312 E108.1999
G1 X43.306 Y64.688 E109.4221
G1 X42.593 Y64.688 E109.4520
G1 X63.216 Y85.312 E110.6743
G1 X62.503 Y85.312 E110.7041
G1 X41.880 Y64.688 E111.9264
G1 X41.167 Y64.688 E111.9563
G1 X61.790 Y85.312 E113.1785
G1 X61.078 Y85.312 E113.2084
G1 X40.454 Y64.688 E114.4307
G1 X39.742 Y64.688 E114.4605
G1 X60.365 Y85.312 E115.6828
G1 X59.652 Y85.312 E115.7127
G1 X39.029 Y64.688 E116.9350
G1 X38.316 Y64.688 E116.9648
G1 X58.939 Y85.312 E118.1871
G1 X58.227 Y85.312 E118.2170
G1 X37.603 Y64.688 E119.4392
G1 X36.891 Y64.688 E119.4691
G1 X57.514 Y85.312 E120.6914
G1 X56.801 Y85.312 E120.7212
G1 X36.178 Y64.688 E121.9435
G1 X35.465 Y64.688 E121.9734
G1 X56.088 Y85.312 E123.1956
G1 X55.376 Y85.312 E123.2255
G1 X34.752 Y64.688 E124.4478
G1 X34.688 Y64.688 E124.4504
G1 X34.688 Y65.337 E124.4776
G1 X54.663 Y85.312 E125.6614
G1 X53.950 Y85.312 E125.6913
G1 X34.688 Y66.050 E126.8329
G1 X34.688 Y66.763 E126.8628
G1 X53.237 Y85.312 E127.9621
G1 X52.524 Y85.312 E127.9920
G1 X34.688 Y67.476 E129.0490
G1 X34.688 Y68.188 E129.0789
G1 X51.812 Y85.312 E130.0937
G1 X51.099 Y85.312 E130.1236
G1 X34.688 Y68.901 E131.0962
G1 X34.688 Y69.614 E131.1261
G1 X50.386 Y85.312 E132.0564
G1 X49.673 Y85.312 E132.0863
G1 X34.688 Y70.327 E132.9744
G1 X34.688 Y71.039 E133.0043
G1 X48.961 Y85.312 E133.8502
G1 X48.248 Y85.312 E133.8800
G1 X34.688 Y71.752 E134.6837
G1 X34.688 Y72.465 E134.7135
G1 X47.535 Y85.312 E135.4749
G1 X46.822 Y85.312 E135.5048
G1 X34.688 Y73.178 E136.2239
G1 X34.688 Y73.890 E136.2538
G1 X46.110 Y85.312 E136.9307
G1 X45.397 Y85.312 E136.9606
G1 X34.688 Y74.603 E137.5952
G1 X34.688 Y75.316 E137.6251
G1 X44.684 Y85.312 E138.2175
G1 X43.971 Y85.312 E138.2474
G1 X34.688 Y76.029 E138.7975
G1 X34.688 Y76.741 E138.8274
G1 X43.259 Y85.312 E139.3353
G1 X42.546 Y85.312 E139.3652
G1 X34.688 Y77.454 E139.8309
G1 X34.688 Y78.167 E139.8607
G1 X41.833 Y85.312 E140.2842
G1 X41.120 Y85.312 E140.3140
G1 X34.688 Y78.880 E140.6952
G1 X34.688 Y79.592 E140.7251
G1 X40.408 Y85.312 E141.0641
G1 X39.695 Y85.312 E141.0939
G1 X34.688 Y80.305 E141.3906
G1 X34.688 Y81.018 E141.4205
G1 X38.982 Y85.312 E141.6750
G1 X38.269 Y85.312 E141.7048
G1 X34.688 Y81.731 E141.9171
G1 X34.688 Y82.444 E141.9469
G1 X37.556 Y85.312 E142.1169
G1 X36.844 Y85.312 E142.1468
G1 X34.688 Y83.156 E142.2745
G1 X34.688 Y83.869 E142.3044
G1 X36.131 Y85.312 E142.3899
G1 X35.418 Y85.312 E142.4198
G1 X34.688 Y84.582 E142.4630
G1 X34.688 Y85.119 E142.4855
G1 X34.688 Y85.295 F1152
G1 X34.705 Y85.312 F1152
G92 E0
G1 E-5.0000 F1800
G1 Z1.390 F1000
; layer 2, Z = 0.390
M106 S255
; tool H0.200 W0.480
; inner perimeter
G1 X115.800 Y85.800 F4800
G1 Z0.390 F1000
G1 E0.0000 F1800
G92 E0
G1 X34.200 Y85.800 E3.2568 F2700
G1 X34.200 Y64.200 E4.1189
G1 X115.800 Y64.200 E7.3758
G1 X115.800 Y85.600 E8.2299
G1 X115.800 Y85.800 F2700
G1 X116.280 Y86.280 F4800
G92 E0
G1 X33.720 Y86.280 E3.2951 F2700
G1 X33.720 Y63.720 E4.1956
G1 X116.280 Y63.720 E7.4907
G1 X116.280 Y86.080 E8.3832
G1 X116.280 Y86.280 F2700
; outer perimeter
G1 X116.760 Y86.760 F4800
G92 E0
G1 X33.240 Y86.760 E3.3335 F1800
G1 X33.240 Y63.240 E4.2722
G1 X116.760 Y63.240 E7.6057
G1 X116.760 Y86.560 E8.5364
G1 X116.760 Y86.760 F1800
G1 X111.760 Y86.760 F3600
; solid layer
G1 X115.392 Y84.841 F4800
G92 E0
G1 X114.841 Y85.392 E0.0311 F2880
G1 X114.162 Y85.392 E0.0582
G1 X115.392 Y84.162 E0.1276
G1 X115.392 Y83.483 E0.1547
G1 X113.483 Y85.392 E0.2625
G1 X112.804 Y85.392 E0.2895
G1 X115.392 Y82.804 E0.4356
G1 X115.392 Y82.126 E0.4627
G1 X112.126 Y85.392 E0.6471
G1 X111.447 Y85.392 E0.6742
