; G-Code generated by Simplify3D(R) Version 4.0.0
; Jul 31, 2018 at 4:56:33 PM
; Settings Summary
;   processName,Process1-1-1-1
;   applyToModels,2018
;   profileName,ZONESTAR Single Extruder 3D Printer(220x220x220) (modified)
;   profileVersion,2018-07-30 18:15:07
;   baseProfile,Default (modified)
;   printMaterial,PLA
;   printQuality,Medium
;   printExtruders,
;   extruderName,Primary Extruder
;   extruderToolheadNumber,0
;   extruderDiameter,0.4
;   extruderAutoWidth,0
;   extruderWidth,0.42
;   extrusionMultiplier,0.9
;   extruderUseRetract,1
;   extruderRetractionDistance,20
;   extruderExtraRestartDistance,0.1
;   extruderRetractionZLift,0
;   extruderRetractionSpeed,3000
;   extruderUseCoasting,0
;   extruderCoastingDistance,0.1
;   extruderUseWipe,1
;   extruderWipeDistance,1.5
;   primaryExtruder,0
;   layerHeight,0.2
;   topSolidLayers,3
;   bottomSolidLayers,3
;   perimeterOutlines,3
;   printPerimetersInsideOut,0
;   startPointOption,2
;   startPointOriginX,0
;   startPointOriginY,220
;   sequentialIslands,0
;   spiralVaseMode,0
;   firstLayerHeightPercentage,100
;   firstLayerWidthPercentage,100
;   firstLayerUnderspeed,0.75
;   useRaft,0
;   raftExtruder,0
;   raftTopLayers,3
;   raftBaseLayers,2
;   raftOffset,3
;   raftSeparationDistance,0.14
;   raftTopInfill,100
;   aboveRaftSpeedMultiplier,0.3
;   useSkirt,0
;   skirtExtruder,0
;   skirtLayers,1
;   skirtOutlines,5
;   skirtOffset,1
;   usePrimePillar,0
;   primePillarExtruder,999
;   primePillarWidth,12
;   primePillarLocation,7
;   primePillarSpeedMultiplier,1
;   useOozeShield,0
;   oozeShieldExtruder,999
;   oozeShieldOffset,2
;   oozeShieldOutlines,1
;   oozeShieldSidewallShape,1
;   oozeShieldSidewallAngle,30
;   oozeShieldSpeedMultiplier,1
;   infillExtruder,0
;   internalInfillPattern,Fast Honeycomb
;   externalInfillPattern,Rectilinear
;   infillPercentage,30
;   outlineOverlapPercentage,15
;   infillExtrusionWidthPercentage,90
;   minInfillLength,5
;   infillLayerInterval,1
;   internalInfillAngles,0
;   overlapInternalInfillAngles,0
;   externalInfillAngles,45,-45
;   generateSupport,0
;   supportExtruder,0
;   supportInfillPercentage,30
;   supportExtraInflation,0
;   supportBaseLayers,0
;   denseSupportExtruder,0
;   denseSupportLayers,0
;   denseSupportInfillPercentage,70
;   supportLayerInterval,1
;   supportHorizontalPartOffset,0.3
;   supportUpperSeparationLayers,1
;   supportLowerSeparationLayers,1
;   supportType,0
;   supportGridSpacing,4
;   maxOverhangAngle,45
;   supportAngles,0
;   temperatureName,Primary Extruder,bed
;   temperatureNumber,0,0
;   temperatureSetpointCount,1,1
;   temperatureSetpointLayers,1,1
;   temperatureSetpointTemperatures,195,50
;   temperatureStabilizeAtStartup,1,1
;   temperatureHeatedBed,0,1
;   temperatureRelayBetweenLayers,0,0
;   temperatureRelayBetweenLoops,0,0
;   fanLayers,1,2,3
;   fanSpeeds,0,60,100
;   blipFanToFullPower,0
;   adjustSpeedForCooling,1
;   minSpeedLayerTime,15
;   minCoolingSpeedSlowdown,40
;   increaseFanForCooling,0
;   minFanLayerTime,45
;   maxCoolingFanSpeed,100
;   increaseFanForBridging,0
;   bridgingFanSpeed,100
;   use5D,1
;   relativeEdistances,1
;   allowEaxisZeroing,1
;   independentExtruderAxes,0
;   includeM10123,0
;   stickySupport,1
;   applyToolheadOffsets,0
;   gcodeXoffset,0
;   gcodeYoffset,0
;   gcodeZoffset,0
;   overrideMachineDefinition,1
;   machineTypeOverride,0
;   strokeXoverride,220
;   strokeYoverride,220
;   strokeZoverride,220
;   originOffsetXoverride,0
;   originOffsetYoverride,0
;   originOffsetZoverride,0
;   homeXdirOverride,-1
;   homeYdirOverride,-1
;   homeZdirOverride,-1
;   flipXoverride,1
;   flipYoverride,-1
;   flipZoverride,1
;   toolheadOffsets,0,0|0,0|0,0|0,0|0,0|0,0
;   overrideFirmwareConfiguration,0
;   firmwareTypeOverride,RepRap (Marlin/Repetier/Sprinter)
;   GPXconfigOverride,r2
;   baudRateOverride,115200
;   overridePrinterModels,0
;   printerModelsOverride
;   startingGcode,G1 Z5 F100,G28 ; home all axes,G92 E0,G1 E20 F100,G92 E0,
;   layerChangeGcode,
;   retractionGcode,
;   toolChangeGcode,
;   endingGcode,G28 X0 Y0,M106 S0 ; turn off FAN,M104 S0 ; turn off extruder,M140 S0 ; turn off bed,M84 ; disable motors
;   exportFileFormat,gcode
;   celebration,0
;   celebrationSong,Random Song
;   postProcessing,
;   defaultSpeed,3000
;   outlineUnderspeed,1
;   solidInfillUnderspeed,0.6
;   supportUnderspeed,1
;   rapidXYspeed,6000
;   rapidZspeed,480
;   minBridgingArea,50
;   bridgingExtraInflation,0
;   bridgingExtrusionMultiplier,1
;   bridgingSpeedMultiplier,1
;   useFixedBridgingAngle,0
;   fixedBridgingAngle,0
;   applyBridgingToPerimeters,0
;   filamentDiameters,1.75|1.75|1.75|1.75|1.75|1.75
;   filamentPricesPerKg,46|46|46|46|46|46
;   filamentDensities,1.25|1.25|1.25|1.25|1.25|1.25
;   useMinPrintHeight,0
;   minPrintHeight,0
;   useMaxPrintHeight,0
;   maxPrintHeight,1
;   useDiaphragm,0
;   diaphragmLayerInterval,20
;   robustSlicing,0
;   mergeAllIntoSolid,0
;   onlyRetractWhenCrossingOutline,1
;   retractBetweenLayers,1
;   useRetractionMinTravel,1
;   retractionMinTravel,5
;   retractWhileWiping,1
;   onlyWipeOutlines,1
;   avoidCrossingOutline,1
;   maxMovementDetourFactor,999
;   toolChangeRetractionDistance,8
;   toolChangeExtraRestartDistance,-0.5
;   toolChangeRetractionSpeed,600
;   externalThinWallType,0
;   internalThinWallType,2
;   thinWallAllowedOverlapPercentage,0
;   singleExtrusionMinLength,1
;   singleExtrusionMinPrintingWidthPercentage,50
;   singleExtrusionMaxPrintingWidthPercentage,200
;   singleExtrusionEndpointExtension,0
;   horizontalSizeCompensation,0
G90
M83
M106 S0
M140 S50
M190 S50
M104 S195 T0
M109 S195 T0
G1 Z5 F100
G28 ; home all axes
G92 E0
G1 E20 F100
G92 E0
G1 E-20.0000 F3000
G1 Z0.200 F480
; process Process1-1-1-1
; layer 1, Z = 0.200
T0
; tool H0.200 W0.420
; outer perimeter
G1 X52.898 Y88.604 F6000
G1 E20.1000 F900
G1 X167.102 Y88.604 E3.5895 F2250
G1 X167.102 Y91.179 E0.0809
G1 X163.231 Y91.179 E0.1217
G1 X163.158 Y91.508 E0.0106
G1 X164.893 Y92.315 E0.0601
G1 X166.563 Y93.482 E0.0640
G1 X167.914 Y94.890 E0.0613
G1 X168.915 Y96.529 E0.0604
G1 X169.741 Y98.794 E0.0758
G1 X170.019 Y100.930 E0.0677
G1 X169.757 Y103.049 E0.0671
G1 X168.945 Y105.277 E0.0745
G1 X167.972 Y107.103 E0.0650
G1 X166.934 Y108.388 E0.0519
G1 X165.562 Y109.395 E0.0535
G1 X163.567 Y110.385 E0.0700
G1 X161.608 Y111.418 E0.0696
G1 X161.510 Y111.952 E0.0171
G1 X162.017 Y112.356 E0.0204
G1 X165.412 Y114.584 E0.1276
G1 X166.558 Y115.565 E0.0474
G1 X167.404 Y116.534 E0.0404
G1 X167.990 Y117.543 E0.0367
G1 X168.360 Y118.650 E0.0367
G1 X168.616 Y121.434 E0.0879
G1 X168.323 Y123.676 E0.0711
G1 X167.470 Y125.758 E0.0707
G1 X166.085 Y127.630 E0.0732
G1 X164.200 Y129.229 E0.0777
G1 X161.882 Y130.441 E0.0822
G1 X159.316 Y131.157 E0.0837
G1 X156.618 Y131.395 E0.0851
G1 X153.908 Y131.175 E0.0855
G1 X151.304 Y130.514 E0.0844
G1 X148.927 Y129.435 E0.0820
G1 X146.896 Y127.959 E0.0789
G1 X145.317 Y126.101 E0.0766
G1 X144.585 Y124.860 E0.0453
G1 X144.195 Y123.803 E0.0354
G1 X144.058 Y122.580 E0.0387
G1 X144.104 Y120.841 E0.0547
G1 X144.432 Y118.407 E0.0772
G1 X145.198 Y116.520 E0.0640
G1 X146.538 Y114.927 E0.0654
G1 X148.618 Y113.389 E0.0813
G1 X151.054 Y111.664 E0.0938
G1 X148.444 Y110.146 E0.0949
G1 X145.715 Y108.414 E0.1016
G1 X144.703 Y107.467 E0.0436
G1 X143.896 Y106.434 E0.0412
G1 X143.287 Y105.304 E0.0403
G1 X142.865 Y104.065 E0.0411
G1 X142.533 Y101.139 E0.0925
G1 X142.699 Y99.055 E0.0657
G1 X143.215 Y97.235 E0.0595
G1 X144.120 Y95.588 E0.0591
G1 X145.454 Y94.015 E0.0648
G1 X146.954 Y92.747 E0.0617
G1 X148.640 Y91.779 E0.0611
G1 X149.343 Y91.527 E0.0235
G1 X149.283 Y91.179 E0.0111
G1 X136.965 Y91.179 E0.3872
G1 X136.925 Y91.554 E0.0119
G1 X137.758 Y91.735 E0.0268
G1 X137.931 Y92.133 E0.0136
G1 X137.851 Y92.513 E0.0122
G1 X137.490 Y92.766 E0.0139
G1 X134.693 Y93.129 E0.0886
G1 X131.070 Y93.387 E0.1142
G1 X130.940 Y112.127 E0.5890
G1 X130.709 Y126.766 E0.4602
G1 X130.503 Y129.853 E0.0972
G1 X130.258 Y130.685 E0.0273
G1 X121.716 Y130.548 E0.2685
G1 X114.830 Y130.097 E0.2169
G1 X113.963 Y129.802 E0.0288
G1 X113.827 Y129.401 E0.0133
G1 X113.911 Y129.013 E0.0125
G1 X114.296 Y128.758 E0.0145
G1 X117.310 Y128.396 E0.0954
G1 X121.181 Y128.137 E0.1220
G1 X121.181 Y93.382 E1.0924
G1 X117.547 Y93.225 E0.1143
G1 X115.337 Y93.058 E0.0697
G1 X114.090 Y92.762 E0.0403
G1 X113.662 Y92.353 E0.0186
G1 X113.730 Y91.759 E0.0188
G1 X114.124 Y91.468 E0.0154
G1 X114.029 Y91.179 E0.0095
G1 X100.554 Y91.179 E0.4235
G1 X100.518 Y91.560 E0.0120
G1 X102.495 Y91.935 E0.0632
G1 X104.657 Y92.636 E0.0714
G1 X106.712 Y93.601 E0.0714
G1 X108.629 Y94.815 E0.0713
G1 X110.381 Y96.262 E0.0714
G1 X111.936 Y97.914 E0.0713
G1 X113.272 Y99.749 E0.0713
G1 X114.365 Y101.736 E0.0713
G1 X115.202 Y103.843 E0.0713
G1 X115.766 Y106.040 E0.0713
G1 X116.052 Y108.290 E0.0713
G1 X116.052 Y110.558 E0.0713
G1 X115.766 Y112.808 E0.0713
G1 X115.202 Y115.004 E0.0713
G1 X114.365 Y117.111 E0.0713
G1 X113.272 Y119.098 E0.0713
G1 X111.936 Y120.933 E0.0713
G1 X110.381 Y122.586 E0.0713
G1 X108.629 Y124.032 E0.0714
G1 X106.712 Y125.247 E0.0713
G1 X104.657 Y126.212 E0.0714
G1 X102.495 Y126.913 E0.0714
G1 X100.263 Y127.337 E0.0714
G1 X97.996 Y127.480 E0.0714
G1 X95.728 Y127.337 E0.0714
G1 X93.496 Y126.913 E0.0714
G1 X91.334 Y126.212 E0.0714
G1 X89.280 Y125.247 E0.0713
G1 X87.361 Y124.032 E0.0714
G1 X85.612 Y122.586 E0.0713
G1 X84.055 Y120.933 E0.0714
G1 X82.720 Y119.098 E0.0713
G1 X81.626 Y117.111 E0.0713
G1 X80.789 Y115.004 E0.0713
G1 X80.225 Y112.808 E0.0713
G1 X79.939 Y110.558 E0.0713
G1 X79.939 Y108.290 E0.0713
G1 X80.225 Y106.040 E0.0713
G1 X80.789 Y103.843 E0.0713
G1 X81.626 Y101.736 E0.0713
G1 X82.720 Y99.749 E0.0713
G1 X84.055 Y97.914 E0.0713
G1 X85.612 Y96.262 E0.0713
G1 X87.361 Y94.815 E0.0713
G1 X89.280 Y93.601 E0.0714
G1 X91.334 Y92.636 E0.0713
G1 X93.496 Y91.935 E0.0714
G1 X95.473 Y91.560 E0.0632
G1 X95.437 Y91.179 E0.0120
G1 X76.871 Y91.179 E0.5836
G1 X76.803 Y91.517 E0.0108
G1 X77.109 Y91.644 E0.0104
G1 X77.783 Y97.772 E0.1938
G1 X78.022 Y102.495 E0.1486
G1 X77.875 Y103.476 E0.0312
G1 X77.563 Y103.984 E0.0187
G1 X77.013 Y104.327 E0.0204
G1 X76.446 Y103.792 E0.0245
G1 X75.976 Y102.889 E0.0320
G1 X75.769 Y101.928 E0.0309
G1 X75.527 Y100.962 E0.0313
G1 X74.913 Y99.979 E0.0364
G1 X74.188 Y99.456 E0.0281
G1 X72.913 Y99.171 E0.0411
G1 X66.904 Y99.018 E0.1889
G1 X61.913 Y99.145 E0.1569
G1 X59.699 Y99.475 E0.0704
G1 X59.624 Y99.735 E0.0085
G1 X61.500 Y101.341 E0.0776
G1 X65.753 Y104.369 E0.1641
G1 X71.825 Y108.830 E0.2368
G1 X74.018 Y110.761 E0.0918
G1 X75.722 Y112.574 E0.0782
G1 X76.985 Y114.327 E0.0679
G1 X77.862 Y116.082 E0.0617
G1 X78.409 Y117.904 E0.0598
G1 X78.673 Y119.850 E0.0618
G1 X78.514 Y122.290 E0.0769
G1 X77.743 Y124.547 E0.0750
G1 X76.426 Y126.576 E0.0760
G1 X74.631 Y128.318 E0.0786
G1 X72.426 Y129.720 E0.0821
G1 X69.885 Y130.720 E0.0858
G1 X67.077 Y131.263 E0.0899
G1 X64.072 Y131.293 E0.0945
G1 X61.814 Y130.927 E0.0719
G1 X59.740 Y130.230 E0.0688
G1 X57.888 Y129.237 E0.0660
G1 X56.294 Y127.981 E0.0638
G1 X54.994 Y126.499 E0.0620
G1 X54.022 Y124.826 E0.0608
G1 X53.413 Y122.994 E0.0607
G1 X53.202 Y121.039 E0.0618
G1 X53.449 Y119.107 E0.0612
G1 X54.120 Y117.484 E0.0552
G1 X55.124 Y116.213 E0.0509
G1 X56.365 Y115.334 E0.0478
G1 X57.748 Y114.892 E0.0456
G1 X59.187 Y114.927 E0.0452
G1 X60.597 Y115.484 E0.0477
G1 X61.899 Y116.620 E0.0543
G1 X62.583 Y117.628 E0.0383
G1 X62.975 Y118.651 E0.0345
G1 X63.090 Y119.662 E0.0320
G1 X62.938 Y120.632 E0.0309
G1 X62.526 Y121.541 E0.0314
G1 X61.859 Y122.363 E0.0333
G1 X60.942 Y123.068 E0.0364
G1 X58.191 Y124.386 E0.0959
G1 X57.483 Y125.110 E0.0318
G1 X57.625 Y126.296 E0.0375
G1 X58.232 Y127.044 E0.0303
G1 X59.500 Y127.713 E0.0451
G1 X61.095 Y128.204 E0.0525
G1 X62.720 Y128.399 E0.0514
G1 X64.525 Y128.124 E0.0574
G1 X66.029 Y127.366 E0.0529
G1 X67.184 Y126.026 E0.0556
G1 X68.009 Y124.193 E0.0632
G1 X68.515 Y122.003 E0.0707
G1 X68.706 Y119.582 E0.0763
G1 X68.583 Y117.056 E0.0795
G1 X68.145 Y114.554 E0.0798
G1 X67.388 Y112.205 E0.0776
G1 X66.305 Y110.134 E0.0734
G1 X63.375 Y106.863 E0.1380
G1 X58.468 Y102.207 E0.2126
G1 X52.220 Y96.619 E0.2635
G1 X52.220 Y94.131 E0.0782
G1 X52.315 Y92.231 E0.0598
G1 X52.506 Y91.411 E0.0265
G1 X52.898 Y91.387 E0.0124
G1 X52.898 Y88.604 E0.0875
G1 X72.898 Y88.604 F3000
; inner perimeter
G1 X76.324 Y91.773 F6000
G1 X76.719 Y91.937 E0.0134 F2250
G1 X77.364 Y97.805 E0.1856
G1 X77.601 Y102.474 E0.1469
G1 X77.472 Y103.329 E0.0272
G1 X77.256 Y103.680 E0.0130
G1 X77.066 Y103.799 E0.0071
G1 X76.786 Y103.535 E0.0121
G1 X76.375 Y102.745 E0.0280
G1 X76.178 Y101.832 E0.0294
G1 X75.918 Y100.796 E0.0336
G1 X75.226 Y99.686 E0.0411
G1 X74.364 Y99.065 E0.0334
G1 X72.965 Y98.752 E0.0451
G1 X66.904 Y98.598 E0.1906
G1 X61.876 Y98.726 E0.1581
G1 X59.370 Y99.100 E0.0797
G1 X59.146 Y99.878 E0.0255
G1 X61.241 Y101.672 E0.0867
G1 X65.506 Y104.709 E0.1646
G1 X71.562 Y109.157 E0.2362
G1 X73.725 Y111.063 E0.0906
G1 X75.397 Y112.842 E0.0767
G1 X76.624 Y114.545 E0.0660
G1 X77.470 Y116.237 E0.0595
G1 X77.997 Y117.993 E0.0576
G1 X78.251 Y119.865 E0.0594
G1 X78.099 Y122.207 E0.0738
G1 X77.362 Y124.362 E0.0716
G1 X76.099 Y126.307 E0.0729
G1 X74.369 Y127.987 E0.0758
G1 X72.235 Y129.344 E0.0795
G1 X69.767 Y130.315 E0.0834
G1 X67.035 Y130.844 E0.0875
G1 X64.104 Y130.872 E0.0921
G1 X61.915 Y130.518 E0.0697
G1 X59.907 Y129.843 E0.0666
G1 X58.119 Y128.884 E0.0638
G1 X56.584 Y127.675 E0.0614
G1 X55.337 Y126.253 E0.0595
G1 X54.407 Y124.653 E0.0582
G1 X53.826 Y122.904 E0.0579
G1 X53.625 Y121.043 E0.0588
G1 X53.858 Y119.216 E0.0579
G1 X54.486 Y117.699 E0.0516
G1 X55.416 Y116.521 E0.0472
G1 X56.555 Y115.714 E0.0438
G1 X57.809 Y115.313 E0.0414
G1 X59.102 Y115.345 E0.0407
G1 X60.376 Y115.848 E0.0430
G1 X61.582 Y116.901 E0.0503
G1 X62.208 Y117.823 E0.0350
G1 X62.564 Y118.752 E0.0313
G1 X62.666 Y119.653 E0.0285
G1 X62.532 Y120.511 E0.0273
G1 X62.166 Y121.318 E0.0279
G1 X61.564 Y122.060 E0.0300
G1 X60.721 Y122.708 E0.0334
G1 X57.942 Y124.039 E0.0968
G1 X57.042 Y124.960 E0.0405
G1 X57.222 Y126.467 E0.0477
G1 X57.960 Y127.375 E0.0368
G1 X59.339 Y128.103 E0.0490
G1 X61.008 Y128.617 E0.0549
G1 X62.727 Y128.823 E0.0544
G1 X64.654 Y128.529 E0.0613
G1 X66.292 Y127.703 E0.0577
G1 X67.542 Y126.254 E0.0601
G1 X68.409 Y124.328 E0.0664
G1 X68.931 Y122.067 E0.0729
G1 X69.127 Y119.588 E0.0782
G1 X69.001 Y117.009 E0.0812
G1 X68.554 Y114.453 E0.0815
G1 X67.777 Y112.042 E0.0796
G1 X66.653 Y109.893 E0.0762
G1 X63.676 Y106.570 E0.1402
G1 X58.753 Y101.898 E0.2133
G1 X52.640 Y96.431 E0.2578
G1 X52.640 Y94.142 E0.0720
G1 X52.732 Y92.290 E0.0583
G1 X52.844 Y91.811 E0.0154
G1 X53.318 Y91.783 E0.0149
G1 X53.318 Y89.024 E0.0867
G1 X166.682 Y89.024 E3.5631
G1 X166.682 Y90.759 E0.0545
G1 X162.894 Y90.759 E0.1191
G1 X162.675 Y91.747 E0.0318
G1 X164.682 Y92.680 E0.0696
G1 X166.288 Y93.803 E0.0616
G1 X167.579 Y95.148 E0.0586
G1 X168.535 Y96.712 E0.0576
G1 X169.330 Y98.894 E0.0730
G1 X169.596 Y100.931 E0.0646
G1 X169.346 Y102.951 E0.0640
G1 X168.560 Y105.106 E0.0721
G1 X167.620 Y106.870 E0.0628
G1 X166.641 Y108.082 E0.0490
G1 X165.343 Y109.035 E0.0506
G1 X163.376 Y110.011 E0.0690
G1 X161.232 Y111.141 E0.0762
G1 X161.051 Y112.123 E0.0314
G1 X161.770 Y112.697 E0.0289
G1 X165.159 Y114.921 E0.1274
G1 X166.262 Y115.864 E0.0456
G1 X167.061 Y116.780 E0.0382
G1 X167.605 Y117.717 E0.0341
G1 X167.946 Y118.737 E0.0338
G1 X168.193 Y121.426 E0.0849
G1 X167.914 Y123.567 E0.0679
G1 X167.101 Y125.550 E0.0674
G1 X165.776 Y127.341 E0.0700
G1 X163.964 Y128.878 E0.0747
G1 X161.727 Y130.048 E0.0793
G1 X159.241 Y130.742 E0.0811
G1 X156.617 Y130.974 E0.0828
G1 X153.977 Y130.759 E0.0832
G1 X151.443 Y130.116 E0.0822
G1 X149.140 Y129.070 E0.0795
G1 X147.183 Y127.649 E0.0760
G1 X145.660 Y125.856 E0.0739
G1 X144.966 Y124.679 E0.0430
G1 X144.607 Y123.706 E0.0326
G1 X144.479 Y122.562 E0.0362
G1 X144.523 Y120.874 E0.0531
G1 X144.841 Y118.516 E0.0748
G1 X145.562 Y116.739 E0.0603
G1 X146.827 Y115.235 E0.0618
G1 X148.864 Y113.730 E0.0796
G1 X151.829 Y111.629 E0.1142
G1 X148.662 Y109.787 E0.1152
G1 X145.973 Y108.081 E0.1001
G1 X145.014 Y107.183 E0.0413
G1 X144.249 Y106.203 E0.0391
