; G-Code generated by Simplify3D(R) Version 4.0.0
; Oct 11, 2019 at 6:35:53 PM
; Settings Summary
;   processName,Process1
;   applyToModels,3DBenchy
;   profileName,Z6X (modified)
;   profileVersion,2019-10-11 13:53:21
;   baseProfile,Default (modified)
;   printMaterial,PLA
;   printQuality,Medium
;   printExtruders,
;   extruderName,Primary Extruder
;   extruderToolheadNumber,0
;   extruderDiameter,0.4
;   extruderAutoWidth,1
;   extruderWidth,0.48
;   extrusionMultiplier,1
;   extruderUseRetract,1
;   extruderRetractionDistance,5
;   extruderExtraRestartDistance,0
;   extruderRetractionZLift,1
;   extruderRetractionSpeed,1800
;   extruderUseCoasting,1
;   extruderCoastingDistance,0.2
;   extruderUseWipe,1
;   extruderWipeDistance,5
;   primaryExtruder,0
;   layerHeight,0.2
;   topSolidLayers,4
;   bottomSolidLayers,4
;   perimeterOutlines,3
;   printPerimetersInsideOut,1
;   startPointOption,3
;   startPointOriginX,220
;   startPointOriginY,110
;   sequentialIslands,0
;   spiralVaseMode,0
;   firstLayerHeightPercentage,95
;   firstLayerWidthPercentage,105
;   firstLayerUnderspeed,0.4
;   useRaft,0
;   raftExtruder,0
;   raftTopLayers,3
;   raftBaseLayers,2
;   raftOffset,3
;   raftSeparationDistance,0.14
;   raftTopInfill,100
;   aboveRaftSpeedMultiplier,0.3
;   useSkirt,1
;   skirtExtruder,999
;   skirtLayers,2
;   skirtOutlines,5
;   skirtOffset,4
;   usePrimePillar,0
;   primePillarExtruder,999
;   primePillarWidth,12
;   primePillarLocation,7
;   primePillarSpeedMultiplier,1
;   useOozeShield,0
;   oozeShieldExtruder,999
;   oozeShieldOffset,2
;   oozeShieldOutlines,1
;   oozeShieldSidewallShape,1
;   oozeShieldSidewallAngle,30
;   oozeShieldSpeedMultiplier,1
;   infillExtruder,0
;   internalInfillPattern,Rectilinear
;   externalInfillPattern,Rectilinear
;   infillPercentage,25
;   outlineOverlapPercentage,15
;   infillExtrusionWidthPercentage,100
;   minInfillLength,5
;   infillLayerInterval,1
;   internalInfillAngles,45,-45
;   overlapInternalInfillAngles,0
;   externalInfillAngles,45,-45
;   generateSupport,0
;   supportExtruder,0
;   supportInfillPercentage,40
;   supportExtraInflation,0
;   supportBaseLayers,2
;   denseSupportExtruder,0
;   denseSupportLayers,2
;   denseSupportInfillPercentage,70
;   supportLayerInterval,1
;   supportHorizontalPartOffset,0.3
;   supportUpperSeparationLayers,1
;   supportLowerSeparationLayers,1
;   supportType,1
;   supportGridSpacing,4
;   maxOverhangAngle,45
;   supportAngles,45
;   temperatureName,Primary Extruder,bed
;   temperatureNumber,0,0
;   temperatureSetpointCount,1,1
;   temperatureSetpointLayers,1,1
;   temperatureSetpointTemperatures,205,60
;   temperatureStabilizeAtStartup,1,1
;   temperatureHeatedBed,0,1
;   temperatureRelayBetweenLayers,0,0
;   temperatureRelayBetweenLoops,0,0
;   fanLayers,1,2
;   fanSpeeds,0,100
;   blipFanToFullPower,0
;   adjustSpeedForCooling,1
;   minSpeedLayerTime,15
;   minCoolingSpeedSlowdown,25
;   increaseFanForCooling,0
;   minFanLayerTime,45
;   maxCoolingFanSpeed,100
;   increaseFanForBridging,0
;   bridgingFanSpeed,100
;   use5D,1
;   relativeEdistances,0
;   allowEaxisZeroing,1
;   independentExtruderAxes,0
;   includeM10123,0
;   stickySupport,1
;   applyToolheadOffsets,0
;   gcodeXoffset,0
;   gcodeYoffset,0
;   gcodeZoffset,0
;   overrideMachineDefinition,1
;   machineTypeOverride,0
;   strokeXoverride,220
;   strokeYoverride,220
;   strokeZoverride,220
;   originOffsetXoverride,0
;   originOffsetYoverride,0
;   originOffsetZoverride,0
;   homeXdirOverride,-1
;   homeYdirOverride,-1
;   homeZdirOverride,-1
;   flipXoverride,1
;   flipYoverride,-1
;   flipZoverride,1
;   toolheadOffsets,0,0|0,0|0,0|0,0|0,0|0,0
;   overrideFirmwareConfiguration,0
;   firmwareTypeOverride,RepRap (Marlin/Repetier/Sprinter)
;   GPXconfigOverride,r2
;   baudRateOverride,115200
;   overridePrinterModels,0
;   printerModelsOverride
;   startingGcode,G28 ; home all axes,,G1 Z5 F3000 ; lift,,G1 X5 Y10 F1500 ; move to prime,,G1 Z0.2 F3000 ; get ready to prime,,G92 E0 ; reset extrusion distance,,G1 Y80 E10 F600 ; prime nozzle,,G1 Y100 F5000 ; quick wipe
;   layerChangeGcode,
;   retractionGcode,
;   toolChangeGcode,
;   endingGcode,G28 X0 ; home x axis,,M106 S0 ; turn off cooling fan,,M104 S0 ; turn off extruder,,M140 S0 ; turn off bed,,M84 ; disable motors
;   exportFileFormat,gcode
;   celebration,0
;   celebrationSong,Random Song
;   postProcessing,
;   defaultSpeed,3600
;   outlineUnderspeed,0.5
;   solidInfillUnderspeed,0.8
;   supportUnderspeed,0.8
;   rapidXYspeed,4800
;   rapidZspeed,1000
;   minBridgingArea,50
;   bridgingExtraInflation,0
;   bridgingExtrusionMultiplier,1
;   bridgingSpeedMultiplier,1
;   useFixedBridgingAngle,0
;   fixedBridgingAngle,0
;   applyBridgingToPerimeters,0
;   filamentDiameters,1.75|1.75|1.75|1.75|1.75|1.75
;   filamentPricesPerKg,46|46|46|46|46|46
;   filamentDensities,1.25|1.25|1.25|1.25|1.25|1.25
;   useMinPrintHeight,0
;   minPrintHeight,0
;   useMaxPrintHeight,0
;   maxPrintHeight,1
;   useDiaphragm,0
;   diaphragmLayerInterval,20
;   robustSlicing,1
;   mergeAllIntoSolid,0
;   onlyRetractWhenCrossingOutline,1
;   retractBetweenLayers,1
;   useRetractionMinTravel,0
;   retractionMinTravel,3
;   retractWhileWiping,0
;   onlyWipeOutlines,1
;   avoidCrossingOutline,0
;   maxMovementDetourFactor,3
;   toolChangeRetractionDistance,12
;   toolChangeExtraRestartDistance,-0.5
;   toolChangeRetractionSpeed,600
;   externalThinWallType,0
;   internalThinWallType,2
;   thinWallAllowedOverlapPercentage,10
;   singleExtrusionMinLength,1
;   singleExtrusionMinPrintingWidthPercentage,50
;   singleExtrusionMaxPrintingWidthPercentage,200
;   singleExtrusionEndpointExtension,0.2
;   horizontalSizeCompensation,0
G90
M82
M106 S0
M140 S60
M190 S60
M104 S205 T0
M109 S205 T0
G28 ; home all axes
G1 Z5 F3000 ; lift
G1 X5 Y10 F1500 ; move to prime
G1 Z0.2 F3000 ; get ready to prime
G92 E0 ; reset extrusion distance
G1 Y80 E10 F600 ; prime nozzle
G1 Y100 F5000 ; quick wipe
G92 E0
G1 E-5.0000 F1800
G1 Z1.190 F1000
; process Process1
; layer 1, Z = 0.190
T0
; tool H0.200 W0.504
; skirt
G1 X81.041 Y98.644 F4800
G1 Z0.190 F1000
G1 E0.0000 F540
G92 E0
G1 X81.875 Y98.103 E0.0417 F1440
G1 X81.990 Y98.039 E0.0472
G1 X82.546 Y97.767 E0.0731
G1 X82.668 Y97.717 E0.0786
G1 X83.658 Y97.375 E0.1225
G1 X83.764 Y97.345 E0.1271
G1 X84.267 Y97.227 E0.1488
G1 X84.375 Y97.207 E0.1534
G1 X84.977 Y97.129 E0.1789
G1 X85.013 Y97.125 E0.1804
G1 X85.181 Y97.109 E0.1874
G1 X85.217 Y97.106 E0.1889
G1 X108.743 Y95.644 E1.1768
G1 X108.758 Y95.643 E1.1774
G1 X108.830 Y95.640 E1.1804
G1 X108.845 Y95.639 E1.1810
G1 X109.832 Y95.605 E1.2224
G1 X109.858 Y95.605 E1.2235
G1 X109.981 Y95.604 E1.2287
G1 X110.007 Y95.604 E1.2298
G1 X110.714 Y95.614 E1.2594
G1 X110.749 Y95.615 E1.2609
G1 X110.915 Y95.622 E1.2678
G1 X110.950 Y95.625 E1.2693
G1 X112.533 Y95.751 E1.3358
G1 X112.573 Y95.755 E1.3375
G1 X112.762 Y95.777 E1.3455
G1 X112.802 Y95.782 E1.3472
G1 X113.819 Y95.941 E1.3903
G1 X113.850 Y95.946 E1.3917
G1 X113.998 Y95.973 E1.3980
G1 X114.030 Y95.980 E1.3993
G1 X115.087 Y96.209 E1.4447
G1 X115.120 Y96.217 E1.4461
G1 X115.272 Y96.255 E1.4527
G1 X115.305 Y96.263 E1.4541
G1 X116.379 Y96.567 E1.5009
G1 X116.409 Y96.576 E1.5021
G1 X116.548 Y96.620 E1.5083
G1 X116.577 Y96.629 E1.5096
G1 X117.481 Y96.942 E1.5496
G1 X117.510 Y96.953 E1.5509
G1 X117.648 Y97.005 E1.5571
G1 X117.677 Y97.016 E1.5584
G1 X118.676 Y97.428 E1.6037
G1 X118.706 Y97.441 E1.6051
G1 X118.847 Y97.504 E1.6116
G1 X118.877 Y97.518 E1.6129
G1 X119.834 Y97.983 E1.6575
G1 X119.861 Y97.997 E1.6588
G1 X119.989 Y98.063 E1.6648
G1 X120.015 Y98.077 E1.6661
G1 X120.816 Y98.524 E1.7045
G1 X120.842 Y98.539 E1.7058
G1 X120.964 Y98.611 E1.7117
G1 X120.990 Y98.627 E1.7130
G1 X121.939 Y99.228 E1.7600
G1 X121.968 Y99.247 E1.7615
G1 X122.102 Y99.338 E1.7683
G1 X122.130 Y99.358 E1.7697
G1 X123.046 Y100.023 E1.8172
G1 X123.076 Y100.045 E1.8187
G1 X123.211 Y100.151 E1.8259
G1 X123.240 Y100.174 E1.8275
G1 X124.183 Y100.962 E1.8790
G1 X124.210 Y100.985 E1.8805
G1 X124.337 Y101.099 E1.8876
G1 X124.364 Y101.123 E1.8891
G1 X125.188 Y101.912 E1.9369
G1 X125.212 Y101.936 E1.9384
G1 X125.324 Y102.050 E1.9451
G1 X125.348 Y102.074 E1.9465
G1 X126.084 Y102.873 E1.9920
G1 X126.108 Y102.900 E1.9935
G1 X126.219 Y103.028 E2.0006
G1 X126.242 Y103.056 E2.0021
G1 X127.064 Y104.077 E2.0571
G1 X127.090 Y104.110 E2.0588
G1 X127.206 Y104.267 E2.0670
G1 X127.230 Y104.300 E2.0687
G1 X127.989 Y105.406 E2.1249
G1 X128.006 Y105.433 E2.1263
G1 X128.089 Y105.561 E2.1327
G1 X128.106 Y105.588 E2.1340
G1 X128.591 Y106.395 E2.1735
G1 X128.639 Y106.485 E2.1778
G1 X128.847 Y106.920 E2.1979
G1 X128.887 Y107.014 E2.2022
G1 X129.210 Y107.895 E2.2416
G1 X129.246 Y108.014 E2.2468
G1 X129.383 Y108.581 E2.2712
G1 X129.405 Y108.703 E2.2764
G1 X129.493 Y109.418 E2.3066
G1 X129.500 Y109.511 E2.3105
G1 X129.516 Y109.949 E2.3289
G1 X129.516 Y110.042 E2.3328
G1 X129.480 Y110.745 E2.3623
G1 X129.469 Y110.855 E2.3669
G1 X129.390 Y111.369 E2.3887
G1 X129.367 Y111.478 E2.3933
G1 X129.143 Y112.337 E2.4306
G1 X129.100 Y112.466 E2.4363
G1 X128.863 Y113.060 E2.4631
G1 X128.804 Y113.182 E2.4688
G1 X128.289 Y114.111 E2.5133
G1 X128.269 Y114.146 E2.5149
G1 X128.171 Y114.308 E2.5229
G1 X128.149 Y114.342 E2.5246
G1 X127.548 Y115.257 E2.5705
G1 X127.523 Y115.294 E2.5723
G1 X127.402 Y115.463 E2.5810
G1 X127.375 Y115.498 E2.5829
G1 X126.285 Y116.894 E2.6571
G1 X126.251 Y116.936 E2.6594
G1 X126.083 Y117.129 E2.6701
G1 X126.046 Y117.170 E2.6724
G1 X124.839 Y118.430 E2.7455
G1 X124.810 Y118.459 E2.7473
G1 X124.670 Y118.594 E2.7554
G1 X124.640 Y118.623 E2.7572
G1 X123.906 Y119.280 E2.7985
G1 X123.882 Y119.300 E2.7998
G1 X123.770 Y119.395 E2.8059
G1 X123.746 Y119.414 E2.8072
G1 X122.909 Y120.081 E2.8520
G1 X122.882 Y120.103 E2.8535
G1 X122.750 Y120.200 E2.8604
G1 X122.722 Y120.221 E2.8618
G1 X121.749 Y120.898 E2.9115
G1 X121.717 Y120.920 E2.9131
G1 X121.564 Y121.019 E2.9208
G1 X121.531 Y121.039 E2.9224
G1 X120.359 Y121.736 E2.9796
G1 X120.323 Y121.757 E2.9813
G1 X120.151 Y121.850 E2.9895
G1 X120.114 Y121.869 E2.9912
G1 X118.885 Y122.478 E3.0487
G1 X118.848 Y122.495 E3.0504
G1 X118.671 Y122.575 E3.0585
G1 X118.633 Y122.591 E3.0603
G1 X117.393 Y123.091 E3.1163
G1 X117.348 Y123.108 E3.1183
G1 X117.138 Y123.182 E3.1276
G1 X117.093 Y123.197 E3.1296
G1 X115.454 Y123.697 E3.2015
G1 X115.414 Y123.708 E3.2032
G1 X115.228 Y123.757 E3.2112
G1 X115.189 Y123.767 E3.2130
G1 X114.250 Y123.977 E3.2532
G1 X114.220 Y123.983 E3.2546
G1 X114.074 Y124.011 E3.2608
G1 X114.043 Y124.017 E3.2621
G1 X112.913 Y124.201 E3.3101
G1 X112.887 Y124.205 E3.3112
G1 X112.762 Y124.223 E3.3165
G1 X112.735 Y124.226 E3.3176
G1 X112.075 Y124.300 E3.3454
G1 X112.042 Y124.304 E3.3469
G1 X111.882 Y124.316 E3.3535
G1 X111.848 Y124.319 E3.3550
G1 X110.342 Y124.393 E3.4182
G1 X110.302 Y124.394 E3.4198
G1 X110.117 Y124.397 E3.4276
G1 X110.077 Y124.397 E3.4293
G1 X109.065 Y124.373 E3.4717
G1 X109.045 Y124.372 E3.4726
G1 X108.947 Y124.368 E3.4767
G1 X108.926 Y124.367 E3.4775
G1 X85.181 Y122.891 E4.4746
G1 X85.130 Y122.887 E4.4767
G1 X84.889 Y122.861 E4.4868
G1 X84.838 Y122.854 E4.4890
G1 X84.144 Y122.744 E4.5185
G1 X84.054 Y122.726 E4.5223
G1 X83.638 Y122.623 E4.5403
G1 X83.551 Y122.598 E4.5441
G1 X82.892 Y122.375 E4.5732
G1 X82.801 Y122.340 E4.5773
G1 X82.383 Y122.155 E4.5964
G1 X82.296 Y122.112 E4.6005
G1 X81.541 Y121.694 E4.6367
G1 X81.442 Y121.632 E4.6416
G1 X80.993 Y121.317 E4.6646
G1 X80.902 Y121.244 E4.6695
G1 X80.219 Y120.644 E4.7076
G1 X80.135 Y120.561 E4.7125
G1 X79.760 Y120.151 E4.7358
G1 X79.685 Y120.060 E4.7407
G1 X79.176 Y119.363 E4.7769
G1 X79.123 Y119.282 E4.7810
G1 X78.889 Y118.894 E4.8000
G1 X78.843 Y118.809 E4.8040
G1 X78.544 Y118.194 E4.8327
G1 X78.507 Y118.110 E4.8365
G1 X78.353 Y117.711 E4.8544
G1 X78.324 Y117.625 E4.8582
G1 X78.102 Y116.862 E4.8915
G1 X78.080 Y116.777 E4.8952
G1 X77.997 Y116.373 E4.9125
G1 X77.983 Y116.286 E4.9162
G1 X77.908 Y115.673 E4.9421
G1 X77.902 Y115.608 E4.9448
G1 X77.883 Y115.300 E4.9577
G1 X77.881 Y115.235 E4.9605
G1 X77.877 Y104.939 E5.3920
G1 X77.878 Y104.889 E5.3940
G1 X77.889 Y104.657 E5.4038
G1 X77.892 Y104.608 E5.4059
G1 X77.960 Y103.862 E5.4373
G1 X77.975 Y103.758 E5.4416
G1 X78.066 Y103.276 E5.4622
G1 X78.091 Y103.175 E5.4666
G1 X78.337 Y102.332 E5.5034
G1 X78.373 Y102.228 E5.5080
G1 X78.568 Y101.749 E5.5296
G1 X78.614 Y101.650 E5.5342
G1 X79.055 Y100.818 E5.5737
G1 X79.126 Y100.702 E5.5794
G1 X79.494 Y100.179 E5.6062
G1 X79.579 Y100.074 E5.6119
G1 X80.334 Y99.245 E5.6588
G1 X80.434 Y99.149 E5.6646
G1 X80.883 Y98.767 E5.6894
G1 X80.930 Y98.727 F1440
G1 X81.041 Y98.644 F1440
G1 X81.316 Y99.039 F4800
G92 E0
G1 X82.124 Y98.514 E0.0404 F1440
G1 X82.213 Y98.464 E0.0447
G1 X82.744 Y98.205 E0.0694
G1 X82.838 Y98.166 E0.0737
G1 X83.803 Y97.833 E0.1165
G1 X83.885 Y97.809 E0.1201
G1 X84.365 Y97.697 E0.1407
G1 X84.449 Y97.681 E0.1443
G1 X85.035 Y97.606 E0.1690
G1 X85.063 Y97.603 E0.1702
G1 X85.223 Y97.587 E0.1770
G1 X85.251 Y97.585 E0.1781
G1 X108.772 Y96.123 E1.1657
G1 X108.783 Y96.122 E1.1662
G1 X108.851 Y96.119 E1.1691
G1 X108.863 Y96.119 E1.1696
G1 X109.846 Y96.085 E1.2108
G1 X109.866 Y96.085 E1.2116
G1 X109.983 Y96.084 E1.2165
G1 X110.003 Y96.084 E1.2174
G1 X110.703 Y96.094 E1.2467
G1 X110.731 Y96.094 E1.2479
G1 X110.888 Y96.102 E1.2545
G1 X110.916 Y96.103 E1.2556
G1 X112.490 Y96.229 E1.3218
G1 X112.521 Y96.232 E1.3231
G1 X112.701 Y96.253 E1.3307
G1 X112.732 Y96.257 E1.3321
G1 X113.741 Y96.414 E1.3748
G1 X113.766 Y96.418 E1.3759
G1 X113.907 Y96.445 E1.3819
G1 X113.931 Y96.450 E1.3829
G1 X114.982 Y96.677 E1.4280
G1 X115.007 Y96.683 E1.4291
G1 X115.153 Y96.720 E1.4354
G1 X115.178 Y96.726 E1.4365
G1 X116.245 Y97.028 E1.4829
G1 X116.268 Y97.035 E1.4839
G1 X116.401 Y97.077 E1.4898
G1 X116.424 Y97.084 E1.4908
G1 X117.321 Y97.394 E1.5306
G1 X117.344 Y97.403 E1.5316
G1 X117.475 Y97.453 E1.5375
G1 X117.498 Y97.461 E1.5385
G1 X118.490 Y97.870 E1.5835
G1 X118.513 Y97.881 E1.5845
G1 X118.648 Y97.941 E1.5907
G1 X118.671 Y97.952 E1.5918
G1 X119.621 Y98.413 E1.6361
G1 X119.642 Y98.424 E1.6370
G1 X119.764 Y98.487 E1.6428
G1 X119.785 Y98.498 E1.6438
G1 X120.579 Y98.941 E1.6819
G1 X120.600 Y98.953 E1.6829
G1 X120.716 Y99.022 E1.6886
G1 X120.736 Y99.034 E1.6895
G1 X121.679 Y99.631 E1.7363
G1 X121.701 Y99.646 E1.7374
G1 X121.829 Y99.733 E1.7439
G1 X121.851 Y99.748 E1.7450
G1 X122.761 Y100.409 E1.7922
G1 X122.784 Y100.426 E1.7934
G1 X122.913 Y100.527 E1.8002
G1 X122.935 Y100.545 E1.8014
G1 X123.872 Y101.327 E1.8526
G1 X123.893 Y101.346 E1.8537
G1 X124.014 Y101.454 E1.8605
G1 X124.035 Y101.473 E1.8617
G1 X124.854 Y102.256 E1.9092
G1 X124.872 Y102.275 E1.9103
G1 X124.979 Y102.383 E1.9167
G1 X124.997 Y102.402 E1.9178
G1 X125.728 Y103.195 E1.9630
G1 X125.747 Y103.216 E1.9642
G1 X125.853 Y103.339 E1.9709
G1 X125.871 Y103.360 E1.9721
G1 X126.688 Y104.375 E2.0267
G1 X126.707 Y104.400 E2.0281
G1 X126.818 Y104.549 E2.0359
G1 X126.837 Y104.576 E2.0372
G1 X127.591 Y105.674 E2.0930
G1 X127.605 Y105.695 E2.0941
G1 X127.683 Y105.817 E2.1002
G1 X127.696 Y105.839 E2.1012
G1 X128.174 Y106.632 E2.1400
G1 X128.211 Y106.703 E2.1434
G1 X128.410 Y107.117 E2.1626
G1 X128.440 Y107.190 E2.1660
G1 X128.755 Y108.048 E2.2042
G1 X128.783 Y108.140 E2.2083
G1 X128.913 Y108.680 E2.2316
G1 X128.931 Y108.775 E2.2356
G1 X129.015 Y109.466 E2.2648
G1 X129.021 Y109.538 E2.2678
G1 X129.036 Y109.956 E2.2853
G1 X129.036 Y110.028 E2.2884
G1 X129.001 Y110.708 E2.3169
G1 X128.993 Y110.794 E2.3205
G1 X128.917 Y111.284 E2.3413
G1 X128.900 Y111.368 E2.3449
G1 X128.682 Y112.202 E2.3810
G1 X128.649 Y112.302 E2.3854
G1 X128.423 Y112.867 E2.4109
G1 X128.377 Y112.963 E2.4154
G1 X127.872 Y113.874 E2.4590
G1 X127.856 Y113.901 E2.4604
G1 X127.762 Y114.056 E2.4679
G1 X127.746 Y114.082 E2.4692
G1 X127.149 Y114.990 E2.5148
G1 X127.130 Y115.018 E2.5162
G1 X127.015 Y115.179 E2.5245
G1 X126.994 Y115.207 E2.5259
G1 X125.911 Y116.593 E2.5997
G1 X125.884 Y116.626 E2.6015
G1 X125.724 Y116.811 E2.6117
G1 X125.696 Y116.842 E2.6135
G1 X124.496 Y118.094 E2.6861
G1 X124.473 Y118.117 E2.6875
G1 X124.340 Y118.246 E2.6953
G1 X124.316 Y118.268 E2.6966
